P5
200 200
255
pkieca^][VUTTTUSPMKKJJJJJIIHDDEDGIFDDFCCDEDCCBA@<<<==;:989::::98:>AFHP\bccccefghiiiijjiiiiiijjkoonmmjjkkkmmnpnnoqrtuuuvwxyz{€~€ƒ†‹‹€~~ƒ}lid\SLJFEEIMORTTTQPPRWQNV`jklmmnnnh^\`hgmpsuvuwuxxwuutxwxyxyokhea_[][YUSRSUUSOKLGGGGGJIGDCDCEGGCDEAABBAAAA???>=<;;;989;;;;;<>CGKO\ecdeehijjjjkkkljkkkkkjkkkmmlkkjikllmoorssrrqvwxxz}€€‚„ƒ‡…ˆ‘‹†€{ˆŒphoh^TPIFEFINPRRQPLNQQPSZbdgilmllle^YX`ejmppnprpqsrrttwxxxxvrlhc^]Z\[WUUQRVXTPMMIHGGHKIFDCCBCBFEDBAFC@AAA@AA>==;<<;:::;;<<=>CIMOU`fggghihhjjikjjjjkklllkjklllklmkkklnlorqooqtuvx|~~‚€ƒƒ€…Œ‰ŠŒŒ‰…‡|ostiaTHGIIDIMNMNOLLNMMR[adfikkkjhe`VZ_ecgkkjonllopttuxvutts|pkea^]ZVVVQNNRUSOLLKIGGIJIFECBBCBFEDCAB?<=????????>?:;::;>?BCILNRS[^cddhhiiihjkjkkllklmnoonklmmlkmnmklnnmorqpqsuwxz}}}~€~…„ƒ‡Œ‹‹’‘—’€rtzpcWMHIIFGKMLJJKKJJRST\dgkjjlmlhcUY`efknnnsrqqpqrstutttrs}snhcb[XVTTQONPTRMKKJJGGIJIHEEECDDGFFEDDCBA@?@>>>???>;;<=?@EJNQTVY[dffedhhikjjmllonnnomoppppnnpmllnoommoqqqrrtuwxyz|}{z~ƒ‡‰ˆŠŒŒŒ‘—”†ywwg_VMHJIGKNLHINMJIXTLVbjmlmnrqnmYX\]kossrqprqtuuwxstwwsupplfa`YZZUSUUSRSOLKIJJGGJLJIFFFFFFHGFGGBCDBBAA?><<<<<=?BEEGLRU[^aeieghhhghjmlloonppoopopqqrrpprnmmoppoorstrrtvwwxyy{}|{€‡†…‡ˆŠŒ“’•˜’’ƒ€…~yn^QJIHFJLJIKOOMNYUOUcprrtssuut][[Sfmswvv{}|~~{|v{€{~okfa[Z[WUTUVUTQROKHHKIGGIMKIGFGGGGGHHIHFIKIFECB@>>>>>ABGJMSW[_cdeghghhfegikmnopppnnnnnpqqrssqrsonmnpqpprsurruvvvwwuy}~~~……ƒ‚„‰’––™œ””’††…„ŠxbVNIEEJLJHIILNWWTTXevxwywsv|pZ^`S^fqwxx‚€{{€{ƒ‰‡„„pgb^\][ZXWVUROOQPKIIILNONNIFCEDINJHJLOTPTXXVQJEE@BDDCCJRX[`cffgjjkiijjjjkjlnnmoopnnooprqqqqqpoommopqsqprttuuvwwwyzyyz~„„„‡…†Š‹”‘”›š™“Œˆ‰˜zs\TOFIGJIGHIGKX\\Z[euvu{owtƒcX]XVZ_kuwy~~€}{†‡††ƒnifa__]][YXVQOONLIHHJLNNMJGDDGEDKNPQPSU\]`bb\UQMHHIHIUX^aacfgiikmlikjkkkjjlnooppqonopqqsssssqqpmopqrrstsssuvuwxvyz|||€ƒ€‚„†‰Œ‹”“–™™˜•Š’“€|iTLKHGIHEFHHMTZ[]ahmvwumuu€]XaZRebcmvw~€€€z|zƒˆƒ€lihea_^]\[XTQONLJHFGJLLLKHEDEFILOQSRX__gefkjgc]YWUSSTceggfhjkkmnonkmmlkkkklopoppqpppprrqqqrsrpppqrrsptwustuuwxxwyy„}}€ƒˆŒŒŠ‹–––’”šš—’…‡‰…x[LOHEHGDFHHNOTX]ej`jtsjsy|_W^YT`dekrvz~}ƒ‚{zy…Š…~iggea^]]ZYWTPNMLIHGHIKLKJHGGHIOUUXWT_ihklmqolkieie`_ahjkkjlnnnprqpmpomlkkklnppqrrppqrrrqqqrtrqqrsssttuvwwuvwwxwwyz~~}…‡ŠŠˆŠ‘’–•˜”‘šœš–Š‘ŒŒ€fTPFEHHEHHGKKOQXcnfovtlt€|^W]YV[deiqry||}‚„~||†‰„ƒieee`[[YXWVSOMMLLJJJJKKJJJIJMPTVV`_Yakhptvusuwvstohfjlmooooppoqrspmrpmllkklopqqrrppqrsrqqqqrrrqttsttvtuy|uvvxxwwyz~}}}~ƒ‡††ˆˆŠ’“’›š•šœ˜‹‘‚o[NGEHGGJJEHILNT_dkrqnnwƒ{YXa[R_d_fsrxzz{„€~z€‚ƒ†ljd]ZZWZ\WSQONMJIIIIJKLLJMMLPUPR_h`bflpv}|{|}|}|vonoopstusrsttrsqpssromnnmonpstqrrsttstuxwutttwwvspsvxyxuvwwxyzz{|~~€„ˆŠˆ‰ˆŒ“•”•™ ¡ œ¢—“š“’Œp`TOGFHGFEFNMLKQX_emqprz„kZZf]S_eaikry}~}~}{y€‚ƒ‡ljd][[Z[ZUQOLKLKJJKKIKJIHLMKOROSZ\]ensu}ƒ}{}€‚~{ursstuvurqoqsrsrruspqrqpnmnpsrrpqqsrrrsuuvvutvwvtqrtvvvxyzzzzz{{~~€€ƒ‡Šˆˆˆˆ‹”–—“£Ÿ¡£¡–’‘“–˜xaVRHEEEEFFMMMMQTZ^kqpw„ŠgY\eaV]c^firw}~|||{yz€€ƒ‡mjd^Z[^[YVSNLKKLLLKLJKKIGKLKNSSX\Y\htyy††„~‚„ƒ{yxvuwvvsqoqrrsssvsqrutrpopqqqrpqqrsqrrstvvvwwxwvrrtvttzzz{zzz{|~~‚„†Š‹†ˆ…Š”••›¢Ÿ¥¦¤¡›˜‘™ ¤‡m^ULHGDEGGKONOPQRVirpxƒcT[^_T\b]egpv}~}}}zwz~~„†mkd^[\]ZYZWQNMMNNMMMNONKIJKJNSSV\\^hsxy|„‡‰‰‰Œˆ„ƒ~|yyyyywtssssutttvvuussrrsspoqsstvvvuuuuvvvwwwwwtuwwvuxxxyzz{}~€€‚€„†‹‹„ˆ‡‹’‘“•š¡¤©ª§¢™”‹•—Œ~faTKFBCHGIOPQPNMPgqotz€cU][aW]b_finu|~~{xz}|…†lgb^][ZYXWTQONPLMNOPOONLJJIJOSRSY\_hpux|‡‹‰Š‰†‡†„}zzyyzxvuuuttuwuuvutsttsssprstuwxxuvvtsttuxwxxwvxxxwvxwxyy{{}~€€‚‚‚„…†ˆˆ…ˆˆ’—œŸ¤§¦¦¦¦§££‹›—š—xn\LEBEFHJNPQPMLPfoquƒ†T[_^`Y_cbejmu|~„ƒz{|~ƒ‡je^\]ZXUUSOONNPMMNPQNMLKKHGHNRSVY[`gmu~|~ˆŒŒŒŒŒ‹‰…~{{zyxywvwwutvvvvuttvvustsrsuuvxwwttvuvttuxxwxwwxwwwwwwxzz{|}~€€€‚„„…†……ˆ‰‘–—› £¢¢¢¥ª®¬¥   ¢™•‹v`NIGFFIKLOQQPMLirum‹‡5^^a`YZa_`fiqx|††{}}~€‡hd^Y[ZVQRQNNLLNOONPPLMMKJHFGKNS[\[agpz…€ˆŒ‰…‚€}|{yyyxvwwvuuvwuuttwvvutsstwyyxvssssyzxxxzyyyyyzyxwvxwxzy{|}~€€}~ƒ„„„…‡Œ’’––š¡ ¢¢£¦¤©¯­ª£¦šŠ‚€jTMJHHIKNOOPPQFntwc…&_addZTc^^ahoty~…‡‚}~~ƒgc_^^ZUPPRQOMNPQQPONKKKKLHHIJMSY^]_ku{‡‘“‘ŒŒŒŒ‹ˆƒ}|yy{ywxywtuuwwvvuwvuuttttwxxxvtttuyzxxyzyyyyyzzyxxxwxzz{|~~€€~z€‚„…„ƒ‚„…Š‘–™œŸ¡  ¡¢ §¡¢¯««¦¼®‹‹~cSMJJKNONNPQVItptq€y<_aebXVj^bejnsyƒ‡…€ƒ„„€ecbebYWPQTTRPQSSSQONHJKKLILLKOSW\`dkqx€ˆŒ‰…‚€|yy{yxyzwtttwwvvvwwvuuutuwuvxywvxxwvwvvyzzzzzzzzyyxwxzz{|}~~}x~€‚ƒƒ‚ƒ…†Œ“—šœ›™Ÿ££§¤¢¦©¥¦±§¡“rYOJKLPPNMOSRNxoq‡vkOZ^c`UXlYcgiiou}ƒ‡‡‚ƒ‡‹Œ…dab`ZTVUUWXYWTSVTRNKMJGGGEINQMPTW\elsy€‡Š‹‹Œ‹‰„ƒ~wuz|yyyzywusttuwzvttwvstsryyyyxwwuvuwxywxy{zyvxyyyyzzy{{{}~|~~{w|„†……††‰’•œŸŸœ›Ÿ§«¨¦ª¨¨¥­¦ª—Š}hWPMNNMRPMPOYtuu{tcWW^db[[c]dhhlpvy€Š†‚„†Š’‘g``]YUTWVUUWVTSTSQMLKIGGGFIMPPSVYamsw{€ˆŒŒ‹ŠŒ‰ƒƒ„{z}|yyzyxwuttttwxvuuvvttssxxwwwvutttwxxwxy{zxzzz{{||{{}}}~€}|{~‚„„…„…ˆˆŠ‘“‘—œœš™›Ÿ£¦§ª¯«¯«¬££š„kWPLMJCJMLPUbqpvƒ„bOV_ea\\e]befjlrw‡„‚ˆˆ’•“c_^ZWVV[[VSTSSRRQNKKJIGHIHJLOOPRWbjqv|„‡ŒŠ‹‡Šˆƒƒyy}{yxyxxwvvuutvxxvvxwuttsvvwwwutsrswxxwwxzyxzz{|}|}}~~€‚€}~~‚ƒ„ƒƒƒ…ˆ„†‰“˜œ™•—›Ÿ¡£¥­²­¬¬«¨§ —‹q\SNKHELPNPWilq{ˆ“`HW_ec\]d[`bcgiou}„‚ƒ†‡Š““__\WVVZ[ZVTSRRRONMKJJHGHKJJLMKNQV`bkrzƒ†ŠŒŒŒŠ…ˆ†‚ƒ~|wx|{yyzxxxxxvuuvwywwxxvuutvvvwwwwvtvvyxwvxyxwyy{{{z{|~~~~~€€~€‚‚ƒ‚‚‚‚…‡ƒ…‡Œ“•—™™˜š £¤£©®¬®±««¤¢›“}eXPMGDIHGL[jlv~†”^HZ`fd]^eZ^adhhmt{ƒ„…ˆŒb^ZVUWVTRQQQQQROMLJJJHHHJKJKLJPW\bfmry…ˆ‹‰ƒ‡†‚ƒ€€{{~|yyzxxxyyxvuuwxxwyxvuutuuuvuyyyxwwxxwuwywvvxyxywxz{|{||~€~€„€…ˆ‡‰Œ‘’“‘“šŸœšŸ§§£¤©ª§®«²¬¤œ”†m\TOIFFFLXcklw{‚]M[`ge^`e[]`fiintz~€„‡ˆŠ‘b]YYXSUSQQPQQQQJKLJIFFGILLNONMS\`dip~{„‡‹Š‹ŠŒŒŠ†ƒ€}zz{}|{yxwwvvwvvvvtttuvvvvvxwvuttvwzywxxxxyyyxwyzxx||||}|{|~‚‚‚‚…‰Š‰Š“‘“˜‘–£¤£¥¦¤¤¤¦¥®¨¥•Šv]XRICCDM]fmqxŠW]Tbgf[`a]\`dghkrw~ƒƒ‰†Š’b^[ZZVTRQQPQQQQQPNJGFFFJLLMNNOW\^blu€€‡‰‹Œ‹ŒŠ†‚~~}{z}|{y{{zyywwwvvtuuuxxxxxxwvvvvwwyxxxxwxy{zy|zz{|||||}}|}€€‚…ˆ‰‰‰’‘‘’”––œ £¦£§°©¢££¬§¢›”ŠzaWQLGFDLZgnsw„Y[Udhh_ab][`ehimot}ƒ…‡…‹“”a`\[[VSROOOPQQRRQOIEHGHJLMKKNSY\]bjw~‚…ŠŒŒ‹‰…~|}{z}|{y|}|{{wwvvvuuuvxyyyywwxxxxwyzzyyyywy{|{{wwy{||||}}}~€~}‚ƒ†ˆ†‰’’”•—–•£¤ ¦§¤¨¥£§§¤¢›”‹€hYQMKGDLZiosx{ƒƒPYSbhjdbc]Z^dghlpu~„ˆ‰ˆŒŒc_ZYYTSQNNNPPQSPNMIFHHHKMLIJMTXZ^ekz~†…ŒŒŒŒŠˆ„€}}||}|}{{y{{{zywwvvvuuwxxwwwwwxxyzyzzzyyyyzxy{|}zy{zz||||}~~~€€€ƒ†……‡“”––•“¨Ÿ£¥¢¥£§µ°¬¤˜„l\SLHFEO]kpsx{MWYeec\dc\Z]adehns|‚„„‰‹†ˆa]XXWRRPNMNOPRSMLKHGIIIKKKHJPTWZ^hp~ƒŠˆŒŒŒ‹Œ‰ˆ…‚€||}~||{z{{zyxvvxwwuvvvvuvvvvvwyyyyyyyzyyyyy{{|z}~|{{{||}~~‚‚€€€‚‚‚€‚‡†…‡Œ’‘”—˜—˜’¡¢ª¨¤¢®ªª¦˜…o_TJGDFN]krux{zQWVadc_db\Z]^bcfkpx{|€†‰‡…_]WVTOPONLLMNNOLKJHGIHIIIHHMSTU[dlw}„ˆŠ‹‘Š‹Š‹‰‡…„ƒ~}}}}{{zyyzzyyxxutstuvwwwtuuvwyxxzyywwxzzyz{yz||{zz|}|~€~~~€€‚†‰‰‡‡Š““–š›–“–Ÿ£Ÿ£¤© «²«›—‡s^UJIDGGUgqx{}‡{N`W_fdccc\[_aedhlqvzƒ„‡Š„^[WUSPPONLLMLLKLKJIHJJJJIHKOTUX`mv{}ˆ‹ŒŒŒŠˆ†„‚~~}|}}{{{zxxyyyxwvuuuuuvwwuuvwwyyzzzxwwyzzyz{z{}{{yz|}|}€~}|}}€€€‚‰‹ˆŠˆˆ‹‘’•™›š—šŸ£ ¡£¢§¤§«­¬Ÿ™’ˆy_ULKEGGVemt{‚Š{HnV^dbbcd^\^beehoruz„„„ˆ‰‹†]\\XTTQONLMONLLKJJJIJKKKKLNSW[_epx…ˆ‹ŒŒŠ‰†ƒ‚~}}~}{{{zyyzzxxwwuuvwuvwwuvwxxzzzzzxxxxzzyz{{||zyyz|}|}‚}}€€€€‚„…†‰ˆ‰Š‹Œ“˜™——™œŸ¢§¥£¨¬®°©¢š“ˆ}]PKECHK\ilow‡}BxU^daabda]^`cbdlqtx‚…ˆ‹‹]Y[VQSPONLLMLJHJJJJJKKLKLLOTY]`gqy‚‡‹‹Š‰‹‰†ƒ€€~}~}z{{zyx{zxwuxvvxvuvwwvwwxy{{{{zxwwyz{xz{|}|zxz{|}|~€€€„‚‚‚‚„‡‰ŠŠ‹Š‘–šš›œ›Ÿ¢¢¨§§¬¦¡˜‰ƒ^PNFDIK[ghly…‡x6U]dbabfb^]bdcfjouw~†Œ‹_YXURQOMKLKHGGGKLLLLJKHKOOTW\_agr{„†ŠŒ‹‹ŒŒŒˆ‡…€€}|{{zyyz{||yxwwwutxwwwytuvxzz{||{{z{|zzyyz{{zzxzz}}}}€€€‚‚……ƒ‚„ƒƒ‡Š‰ˆŒ’•—˜¢¡Ÿ›› ¦ —‰…bRLFGBH\cglx…ˆi9tW[bdcdgb]^acdginrvx|†ŠŠ_ZWUSPNMKLKHGHHIJIIIHIFJPVZ[^dhp{ƒ‡‰ŒŒˆ††€~|||{{zzyzz|}|zywxxwvwvwy|zxwvvz{{||{|||||{{{||{zy{{||~€€ƒ„…‚‚€ƒ†ƒƒ„ˆŠ‰ˆ‘’”——•–š   ¡  Ÿ ¡ œ–‰…dSK?DCJZgknx„ˆg>vX]dedehc^^behiloswzx}…‹^YXUSROMKKKHHHIGGGGGFHGKRZ_cins{„ŠŠ‹‘Œ…ƒ„‚}zz|{zz{{z{|}|{zzzzyxwvwz}zyyyyz{||||{|~|||||}|{|{||}}~~€€€€‚„…‚‚‚‚ƒ…„„…‡Š‰‰”•—˜™˜˜™šœŸ¡¡ŸŸ¡¥¡˜‰†jTJBINT_impv`@zY]dffekf_^dhkklosy~}{}…‹]YWUSQQMKJJHIIIGFHGHFIJOX\dmvz|‚†‰‹ŒŠ„ƒ‚ƒ}|~}{}}||z||{{}|||zzyxz{xy{|}yz{{{}}~~~}~~~}||}~€€~~~‚ƒ„‚ƒƒ„„…„„‡‡ŠŠ‹•”–—™ŸŸ™šœœ›››¡¢–†oVIAENYaioprwyX>}W\cecelia]djmjjmrx‚ˆ†‚€ˆ]YWUSRQNLJKIJJKHHHHIHLMS\bjqy~„…ƒŠŠŒŒ‹ŒŒŒ‹‹‹ƒ‚„ƒ‚‚‚€€~}}{{||}}}~~|~~zyy}|{{{zz||}|~~~~~€~~|}~€~}~ƒ„‚ƒ„……„„…‡†‰ŠŒ“”””–››  œŸŸ  Ÿ”†rVIEGQ`hnsstuyVC‚UY`cafnkb]ailghknwŠŒƒ{€[\YWTUQOMHHHGHKHLLIJKPTZaiquz~‚†ˆˆ‰‰Š‹Œ‹‹ŒŠ„„……ƒ‡„||}~~~}~€~}}{|{zyy|}}|{yz|}}}}~€€~|}~}}}}}|}€€‚ƒ…ƒƒ„†…„„…†Š‰ŠŠ‹‘““•–––˜š›Ÿœ›™›œœ—ˆpRECGKakqpt~xm]CoTYaddhlse^`kojiimy‚”‘†„\]ZWVTROLIHHGHKJLMJMNTX_hry}ƒƒ…ˆˆˆ‰‰‹ŒŒŒŒŒ‹‹Š‡……‡†„†„‚€}}}~€~~~€~}}}~}}||}}|{z{|~€}€~|}~}}~}||}€~€‚}ƒ„„‚„……‡‰‹‹‰‘’“”•––˜›ŸŸ™™Ÿœ›œš–‰tTEBFLdjoqv~kX<WS[dhfhuwc_`ilgfimw’•™–‰\ZZYURPOLJIIHHJKNLLPOV\dnzƒ†‡‡ˆˆ‰ˆ‰‰Š‹‹Œ‰ˆ‰ˆ††‡‰ˆ†……ƒƒ€~€~~}|||||{|}}|{z{|}€‚}}}~}{{|~~~~}||~€€}~€€~~~‚‚ƒ„„‰Œ‰‘’“””•˜›œš—™œ›œ›–šš™—‘ŒwWFBDMfhmqv~oUCORX`dci{ya_bhiddikq}‹’–’‰]XZ[VROMKKJKHHHLNKMTT\clv}‚ƒ……„†ˆŠˆ‰‰Š‹Œ‹ˆˆ‰Šˆ‰Š‹Š‰„ƒƒƒ„€€‚‚€€€~}|{{|}|}}|{{|}~€~|{|}|{{|~~}|~€€€€€€~~‚ƒƒ†ˆ‹ŒŒ‘“““”—›¡¢£££Ÿ›œ™”™šš–‘{YFABOifkosu}SLOPW`cbhsvc^_egechkm{…“‡^YZ\VQONLKKJHGHMOLMV[aju~}‚‚‚€…‡Šˆ‰‰ŠŒŒ‹‰‹‹‹‹ŠŒŒ‹Š„‚ƒ„„€€€‚‚€€‚€~~~~~€€|~~|{||~~}}~~|{{{{{z{|}~~~~}|}~€ƒƒ‚‚~~‚‚‚„ˆˆ‰Œ‘’’’”—šœ  ›šœ›–™š—•“}[FAAPiejnqqy}NS]TZbedhjse]^aegcgjkx|ˆ‹ˆˆ‚`][YVURPLLKJJJILOOQYdgo{‚ƒ……ƒƒƒ„„ˆ‰‰ŒŒŒŒŒ‹ˆ……ƒƒƒ‚}}~~€€}}~}{|~~~~{~~}}yyzz{|}|}{xz}zz{{zzyy{}|{{~‚‚€€€~~~€„ƒ€„‡ˆŠŠ‰ˆ‰Œ‘“•–™œŸŸ  Ÿœœš—–“’‚^G@ATeegjmtyqRTmUZ`dgfjre^]^aeddhno‚ŠŠ„…`]^[XWROLLLKKKKMPQV^ipy~‚…†††‡…„ƒˆ‰ŠŒŒŒŒŒ‹‡…†……~{||}|{{|{{~}{|{{~}~}|{z{|{zxxxxy{{yyzxy|zyzzzyzxz{{|€€€~~|}~~„ƒ…ƒ‡‹Š†ˆ†ˆŒ‘“’–˜›œœŸ¢£¡™œœ˜’‚^G??Wkbhkmx€eLXdSV^dgeinha]aeeedglq~Œ‘‹‰a^]ZXWROLLLLLLLNQU[elt}~…ˆˆ‡ˆˆ‡†„‰ŠŒŒŒŒŒŒŒŠ†„ƒƒzwwxyyz{{zzz|}{{}~}||zyyxy{ywvwwvwyxwuwvwzxvxxxwyxyz{{~}}|}{|||‚‚„ƒƒ…‡‡…†‹‹‘‘”˜™šŸŸ› Ÿš–[GA?Qffjko|‡eI\hVX^abfggg_]cgigdfkr{“•‘b[YWUTROLLMLLLLNTXakqwƒ„ˆ‰ŠˆˆˆˆˆˆŠ‹Œ‹ŒŒŒ‹Šˆ†‚~ysomoprsy{{zywvvxyvyzxy{ywvvxwxvtttsssttuvtvywvwwuvzxxyyyzz{}}{|{zzz||~|z~~~€€€~€ƒ…†‡‹‘•˜˜œ¡¦¦§¤¡™™‘Œ`CCKVcjjlpŒtI^yWZ_dennej`^afmiddks|”–•“•_YXXTSROLLLLKLMPT[gpx}ƒˆ‰†ƒ‡‰…„„ˆŠ‹ŒŒŒ‹Œ‘’ˆˆ†‚rlfegjklmmqpkononqtoprruvuutqrtttssrsrqqsuustwxuwvuswvwwwxwyz|zxwxxyz{{zywxwy}~~|}‚†‡‡Š‹’—šŸ¢¨¬¨™œ•^;DQ^chjpq‘pDb}VZ`fhns|rb_^bkjffkr€“™—“–^YZYURRNLMMLKLMSW_kt{„ˆŠ‡ƒ‡‰…‡‰‹ŒŒŒŒŒŒŒŒŒˆ‚‚xrphgedccb`_\bb]cgifejjijmnoooonnprrrqponmmnqpoqrtuuusqssuuwvtwy{xuuvstvwxxvttuuwyy~‚ƒ…†„‡Š‹—–™ ¦°¦  ˜’‘_3FT_egiqr~d@c}VY_cegsŠ{e]\^egfgkp~™—•”^ZZYVSRNLMMLLMPU[epw~‚†ˆ‰ŒŠŠ‰‡‰ŒŒŒŒŒŒŒŒ‹‹‰„{vpfcdge`YSQQONKNOOTSTSRX__cdgjjjjlmmopkkjigeeiklkkoqqqrqoqqstwupsywvttuqrrttsrqpsssssz{|}ƒ‡ƒ‚ƒ…ˆŒ‘“˜ ¦¦§©¦›‘c8GZagjkos‹\@aUW\`bgs‰€d\[\^cddinwŠ–—”•^[[YVTRNLLMMNOSX_jv{‚…‡‰ˆŒŠŠˆ‡‡ˆŠŒŒŒ‡„yqieb_[\^WVSOJEFGHFFGHJGKLPVSTW[_bbdehhhihdcca```dgijknqmoonnmnprtroqvtrqrsrrrsrnnlkprrrrstuvx}€~„††‡ˆŒ– ¥¨¥Ÿ•ˆc<E``ijkmt€ˆ_F`~VW\``kp‚‚a^^`_abbfks…’“’“^[[ZVTRNLMMNNPU[cox}…†ˆˆ‡‡ŠŠŒˆƒ†Œ‹ŒŒŒ‹ˆƒ|wtpf^YSSSTTPLKKJGEDCECCDCCEDFLKLOTUWYZ[]\]\\__]]]^_cgddfjmjkmlkkmoqqppqrqppqronmmmkjigijmopqstuvuwx~€€‚€„Š“–‘Š’ˆk?Cb^fhklu‰eL^}XZ^abhjz„f_cffc`aeis„Šb`]XSPLLKJIIKMV[hv|†‡‰‹ŒŒŒŒŒŒ‹‹‰‰‹‹Š„|tmdYUSNNNNMIIIIIFECAAA?>=>=;;:@BFFJLLMMVVVVVSX[[\\X]eb_]bgkihkljkkmooomlnlllolimjddddbhgegnqmrsqvxwz{zy{|t|}‚‹ƒƒ‡‹‹Š†p2[_adklls…kJ`qXX]_`eam†m\]digeceio|‹ˆ…`_\XSQONNMLNOQX^lyƒ‡ˆŠ‹ŒŒŒŒŒ‹‹‹‰ˆ‰ŠŒŒ‚}xsj_URNJLJJICCCCDFGEBCBA?>==;:;;=ABCCCDE@BGKMOORTWZUW\`]]aegeeiiijjkllklllkjkmkijgba`a^`a`bijhkljosrrqqrolqmkjitw{…‰„r6_bdfmlls}‚jDWmXX]`ajfk€c]]ejhfcehmw‡‘†^\ZXURQPOONOQT[dq}…‰Š‹‹ŒŒŒŒŒŒŒ‹Š‰†ˆ‹ŒŒ„yphd`YUQJHGFEBBBBBEFEDBA@>=::989779;<<<>>;<?BEFDDIMRPMQYZ[^`bbdeffhiighiklkihhihgd`]\[ZWY\\]bcdddehnljefhd^_Z`gcfimtw~|L_bcekgjr{jIXhVW\acbfh„g__fkjgefhmr}ˆ‰^ZYXVUQPOONOQS[jw‚…‡‹‹‹‹ŒŒŒŒ‹ŒŠ‹‰‰†‡ŠŠ‰wlfc`^YVPIHFEAAABBBBCCA?><::998765567888::>====>>??BHJFJQRVWX\_bbcefefffffgjheeedd^XWWWTQSWVTVTWUUX\_\\YYYWURQRVV[]`elzrzU`bbdjeiqxyiNWdTV\abhkc…g_ahmlhffhnpw|{‹^YXWWVONMMLMPS[m{…‡‰‹ŒŒ‹‹ŒŒŒŒŠŠŠ‰‰ˆ‰‰ˆ…‚unkgd`]VKJGDC@@@@?>?@?<:97688766557543555666689<><:?FAIKNPSSX]aa`cddeffdbbjgdddcdZVUTTPLMPLGGEJFGLQOLONKLMONTNKSSSTW\kbt]cfeflkmnpsiGN`TU]admnaˆm`binliffhlpy|x\XTUUQOLKKLNUO\q{ƒ‡‹Œ‹Š‰‰‹ŒŒ‹ŠŠ‰‰‰Œ‹‰‡†}vrle`YTQNKGDEEEED@A?;>><:979:978754444445444557:<<>??CKMORUWY^aaa``dcceebcddb_^]XQONJGFIGEDBBAACEEDDEEEFGHJGGIHMRSVZ_dc\]`dffgjlljdIO^UX\_`hhczpbabgefd_dhpy|zw\WUUTOOMLLNNTSas}…ˆŒŒŒŒŒ‹Š‰ˆ‡†‡†‚~|xsokf`[UWUQNLHIIJIEC@=<<<<<==<98:9765555577431666679<;@GIKOSWZ]^````cddeb`aaa`^]ZUOKGDA?BB@@?;::<=><<=??@@BCBBCDKSRORX_^XX[`bdcgkpnaHN\TV[_ahk]‚qc__cedc`cgq{~y\VSTTNMLLMOPVZfx€ˆŠŒ‰Š‹‰‹Š‰†…„‡†€z|ysnljea\ZXURQNMJHGIFC@==???AA@=:<<:878888:9643664348:8=DFINQVY\\\^```^_baa^__][ZVOLJEA>>=<<;;9979:866799:;;<<;>@IQMIKPSUTSW]bcehpyu\FITQTZ_ahnVŒp`\_fkifgehq}‚ƒƒ\USTSMLLLMQPW^jzƒ‰‹ŒŒ‰‹ŒŠ‹‰‰†……ƒ€|ytrpolgd_\XVTQPMLJGFFHHEEDCCBBCDBA?=<;9999977656666779:9>DFIOSUXZZZ\_`^[[]]\[[\ZYYRLJGD@=<::;;;97678867976898999=@FJIIIHHLRQV]bdijpzy`IHNPTY_`hqN”pc]^hnifhegr€††‰^WSSQLLMLMRSX`n}„‹ŒŒŒŒ‹Š†„„€{wuuqmkif`[WVURONJKKJIHIIHGHGFDDDDDDA?=<:999868888777789;;?CEHNRTUWXZ\]]]ZZZZXZYZZWXOHFCA>;:::9996433576797678899:=?BFGIHEDHONU^ccggmx|aQMTOS\``eoK“sg^_hkhfebisƒ†ŒŒg\UPOKKNLLQVZcr€…‹‘’’‘ŒŒŒ‹‡ƒ„€{wusrpkjf`[YYVRPOMNONMMMLLHHIHGIHGFFFBB@===;;99:::<98998<=?ACFKORSUXXYYYYYXYXXWUWXUVMEAA>><;:8677444456568999:::;=>??CEFEEFIMOV^ccfgny€aQPdRU]``daRˆpg\`gghgbdfl†paXQPMLMMNQV[duƒ‰‘‘‘‘’’’‘ŒŒ‰…‚~zvsqrpiec`^^[XTRRRSSSRSSRQNLNNLPNNMMIFECBBA?>===<;=<:;::<>@CCGLOQVZYWUVUUVXWWWVTTURRLEB@?<;;87647777776679<<==>=>@AA>BEEFGGLSUZ`cdehoz€eJPrVU\_`fX\~ye]^dfhgbddezŒug[RPNNMOQPV]hy…Š‘Œ‰…€~}yutonjd`_][\YVTSSUVVUUUUVWVVWXVWVVVUMIJHDCB@>BA@>=<:9::;=@BDEHLOPUYXVTTTTUVUUVYVUVQNKGB@>=;::86779:::::;=?@@BCCBBBBCDGJJJLPVZ[]_bcdir|}dHPsWVZ^`dZ\t…b_\aehgbdggv‘‘tl^RQOOLQRPW]k}†‰Œ“’’Œˆƒ||xtrojfa_\YWWVTQQQTVWVV[\\^^_``^]\[[ZVRSPKIGDBECBA??=<<==>ACFGILNOQSTWUVUUTSTSTWSSSNLKGC@==:9<;9:;<<<<=@?ACDDFFFEEEDDFILMMQ[``]\]^_cit|}iENvYWX\``[\lq``[`figbddkp‡“wo]STSPQSSQT[ky†ŠŒ’•”“’’“‘Œ‹…~ztpnlgb_^[WTRUTTSSSUWY\^^^abb_ab`_^]\][VRRROJFHHGFFC@>??@ACDGGHNORSTUVWWXVTTUUVVRNLKKIGEA=><=<<<<:=??@CDEEFEEGIJKKKIJILMNMS_g_W\a_\ahrz€gCHtWVZ_`b[_dj`_`\befedfgp…”xrbUQMKMPRRU^lz†‰Œ‘‘””“’’“‘ŒŠˆ„€|xrnkie_\YUUUUQQQRQSTWY[^_aegeccdaccba`]YVTTRPNKJJIIDB@@@ABDEHHJMPRSTUTWXXWUUUVVSSQMJHGDB@>>=>==>==>AABFIIJLLLLLLIIHGGLMOPQYci^Y^``^agpz~dEIrYX[]]ebZfi`[^`efec`dgr„‘’vrhZQLHJMRUWap}‰‹‘““““““‘‹‰†‚~zunjhe`\ZWUUSSOOQQSQSUXYXY\`cb`_^]_a``_]ZXXXUSQNNMLKGEBCCCDEFIJKNRRSTUUWYZYWVVVVORSOIFDB@???????@AABFGGMQRSUVVTSRSRPNNOQSTY`ji^\^``^bfozlJGiYY[\\`eVmveZ[^ghgdaagr‚oombWSMKMRWZcsƒŒ’’““””“‘ŒŠ‡„{unifc^ZVUUSRPRTVY[WX[]]XXZ\^^^[XZZZXWYXWVWXTOKONMMLKHFFDDDFHIKLPSRSTUUXZ\\YXWWVPRQNKFDC@@@@@?ACCDEILMQUY[]^_^\\\WVTRQTTVX\ckk^^_^_`cem{‚lJJq[X\]]^bYl‰i\Z[dggfcbep€‹‘hini_^SNNRWZeu„‘’’””•“’ŒŠ…}wpif_[VTQPRRSWY\abdegjifcccegfb^\\YUSSRQQQQOLJMMLKKLJHGFEFGIKLMQTRSTTVY[]^[YXWVRPNONHFDBAAAAABCFGHOSTW\^`ceaabcca_\ZYVWYY\bji^b_^_addmz„kFEnWV[^`b__e“f\\\^^abbddl~ŒŒijmkgbZJMOV\jz‡Œ‘‘“•–””’Œ‹†ƒ~xqid]VUPLJILKNPT[a`dhhhihhhknkda``^[YXUQKHGGHKIIJKKJKJHGHIJJLLOSWUVY\]^^\\[\][XUSPOMIFBBBBBAACEHLMQQT[__cfedcadggda[XVWV[cclg]`^]^`belxƒjJNoUV_a]]`\d‡i\Z]\^\[``ekzˆ‰limnjdXIORYan}‡Œ’‘“”•””“‹‡‚~wola]ZVSPLMI@AGOTS[`aadeghhkjeeeec`^`]WQIDBDEFGHHJLLLKIIJKKMNPUYYY\^_]_```^_]ZWVQNLGDBAABBBBCEJNQRUYYY\acb`_`ceccb^[XVT\cdph]_]]]`_aiuiLHbQS[^Z`[]`|i_\\Z\[Z^^fipv€nijjihXHOT\bs€ˆ‘’‘‘’’“”•“’Š‡ƒ€ztqnihc\VRTQFC@>=CIOPQTVY[Z^_\]^^_\ZZXSMHECCCCDFGHKLMKJJKLNNPRXZ[]`ab`bdeedd`^ZWRMLGDA@?@ABCEGJMPPNOSVW]^]YY\_a^ZWZ^YVPS\fvj]^]\]^^`gqxcLF[SU[^]a[]^uh`]ZX]\Z[acdnzmhecejZKPRY`s‰’‘‘‘‘”••”‹‰†ƒ~zwuomic^\[WMIFCA=>?CDFFGHFJKHILLMKHMMKGFDA>>?@BDFGIJIIJLOPQRTZ]_`cefefghiihea\YSMJGC@@?@ABDFGHHIKJKQVY^a`aelnpoh_YWWYVUZh|l\]\[\]__fqw`LD[TUZ]_a_[]{j^[Z[`b]\`bdo{‚kh`[`h_NNRV^r‰‘‘’‘‘’‘”–•”’’‘Œ‹ˆ„}xvrmic`ZXTMHFA<<?A@A??;==9:<==<;==><>>:99<=?BCDHHHJLMORTTW[_bdehhijjkmmkgc]YSNIEB??>?ACDFEDDCHLQUW^dgfhntwxxxqf_W\^^^l}l]]\[\^`bgqwcKCZQSWZ]abY]‚m\XZ]cda^^`glrgc^YY\`TKUWbt‰’’“““““••••“’‘‹†……„€{wurmgc_\UOKFB====?>=:98753233367878745689;>CCGGILLOPVYYZ^behiijprstrqoje]WTQKDA???@BCA@?>ACGIMOSW_egciquzysroge\]_cvzm[^\Z\^]cfnthLIWRU\^]`dZbxr^babfigb`Yfjosga_][XaaPTZgz…ŠŒ‘‘‘’“““”••••”’‘‘‹ŠŠˆ…}{yuplfebZSMF@>=;=>>8753200000224655531458>CDGGILKNOV\]^adhjlnntuwwvtqkf_YUQLCA??AB?=;<;:<==?BDGKPUWV[adjmfliZVRU^hz~p\^\\\^_abhohLHQQU[^]`dZaxr^`\_dhgb^Ycgoqfb`][[]aNQZj~†‰‹’’””••••””““’’”‘ŒŠ‡„~|xspjkh_YRMGFE=??>8542100000114:85530125:=CGGIKLPRZ_acfejnqsstvwwyyunib\WRKFCAABA:64754554569:<=@DGJKKPUWPLKMRYep~‚vZ\^^_]_`_dldDEWRU[^]bcX`y~`^^`cffb^Zaeszee`[[^Z\OU\j††‹Œ‘’”•–••••””””““‘Š†…~zvsspjd_^VOKIDDB?9765311100558??952442258CGGHMQTW_behhgmptvwwy{{||wpjd]YSLIGEEC=72321..0/122444599<>AJELTXS\ejow‚†yX\^`_[_aafk_CEYRUZ_]acX_vvYXZ]befb`^aex|gd`\]alfVV_j|ƒ‡ŠŒ‘’’”””——–”“•””‘‘‘‹‰…ƒƒ‚zwusniefbZTNIFBA><8764422279>AA=95355777@KLMQSUY_egjkjmrvxwy|~~}yrle^YWQMLHFA<879321.+.////236:>?<?GMOTanuvy{{††Z[_``__``in^FEPOTZ^^ccZaw‚a\]_dghg_]`hsƒkda`bfkjWTan|‚…‰‹‘’’““”—˜–•”•”“’’‹Š‡……ƒ|yutpkghgc]YTNJGDA><<::989;>ABBB@<:::;<;>KPQUUW\`fhkklnswwvz{~~}|zsmf_ZXTTTPG>8678861//.....1369:>=BILOZhs‡‰‡Š‡\]^_`^^`bjrcEBKMRX[[]`X_uƒc\]^diiec_`goƒmeefknin_Wap}‚‡Š‘’’““”—˜–••—–•’““‘‹Š‡…„„~|xvtokiigda]WPMGDBBC@@?>>FHIHIJIGFCCDDEBKSWYY[_bfikmlnswxvyz||{|ztnha][UWYTF<7667=7/./--,,.1488;?BDJMRjƒŠ“›”Œ‚c]___^^`clwlE@KLPVXY\a[av‚f\]]cjibc`aho€nilnrsmpm`_p}‚†‰Œ‘’’““”—˜––—™™–“”“’Œ‹ˆ†……„zyvrpjkifc`ZTQLHDCCB@@@@CFGHLPPRRPQRRSLQZ_^__cfhjknmnswxvxz{{{{{upkd_\XXYSIB@?>AB=5210,,/258;=@EGJQTZm‚Š™¤¢’‘…m^``_]\_dn{vFARNRWYXX]WZn€h]\^bgf`\\^gq|toqtttqqxh[o|‚„‡‰Œ‘’’““”—˜–—˜™™˜“””“‘‹Š†‡†„ƒ{{yursrnifb^ZYTPJGEEDDCCDHMNPRTVX[[\]]WW_caabdghjlmmnswxvxz{{{{{wqmea^Z[ZVPLJHIKLIC=895379:<@BADIR`fu}€…—¢¢¡‘“ˆv_`_]\\`eq~{IDXRUY[ZZ`WXhi\\`bdca]Z[bjvtoqtssr|“k^o{‚ƒˆ‰ŒŒ‹‘’•—™™™˜˜˜––•”’’ŒŠ‰‰†ƒ‚€||}xvtqpoigc`]XTQPNMKKLSSTUTUZ\^\]`bb]_acdceghiilopqswyxvvx{}{zyxtj^ZZZ]\WUTSONNLHDCA<?CDFCBCDDWdq~€†Š˜¢¥¦˜”y`^``[]_djrpKBOPSWZZZ\XYc~b[]\]aba[[]beqxxxwurx”£lYo{ƒˆ‰ŒŒ‹Œ‘’•–˜™™˜˜˜––•“‘Œ‹‰‰†„‚‚}}~zxusrrroliea^]]ZYVWWXYYZY[]^]__`bc_`cdddeghikmpqqtxyxzxwy{{{{zxpe^]]\]YXZXVUPNJFDAAEFEECEIQSblw€ƒ‰‘—Ÿ¨¨¨š‘a^__[[\ahpmK@KPSWZZ[]ZZdyf`]Z^aba^^]_anzy{|{z‘›|km{€„‰‰ŒŒ‹ŒŒ‘”•–˜™˜˜˜––•“’’Œ‹‰ˆ‡†„„€€|{yuutuqpmjgfefa_^_a```_`aa`^bbbccbcdfgghiimnopqqtxyxzxwxz{|}~}xpga_^]\[\\ZXQOKGDFGLLIMLPW^]hnw}ˆ“–¡ª««¢›c^]_\ZZ]fmjL>HPSWZZ\^ZZcsic][^aba\\^acjyx|}}}†” ƒhl|}„‡‰ŒŒ‹ŒŒ“”•–™˜˜˜––•”’‹Šˆ‡…††‚‚‚~~|yxwusrpnkhggecabbdcbbbdddcfdeeeeeegiiijjnopqrqtxyxxwxzz{~„zmdb`]____^]YVSNLMLPQPTX\^a_imvzˆ“—Ÿ¦§¥ –‰d]\^_\Y]hmkQ@GOSXZZ\^[\blf`\\]abbY[^bfkx}~}zwŒml}|„‡ˆŒŒ‹‹‹Œ““•˜˜˜™˜––•“’‘Š‡‡‡‡‡„ƒ„€€~zyyxwutsplggheedfdddcbdghffgffffgggjjkkjpqqrrqtwyxvwx{||~ƒ‡‡rgda^_cedddb`\XVRNPTTV]_^aalqy}ƒ‹“—™œ¡¤¨¢•f][^_][^inmUBGOSWZ[^_\\agb[[]]`bb^]]_aktxuutp‘˜”nj}~‚†……‡ŠŠŒŒŒŒ‘’“•—™˜˜—–”’’’‹‰†…†„‚ƒ„~|zwvtsqpnnmligggfgfgghhiiiiiijihhjlmooorstuusuwxzyz{{}€€†ŒŒ‡|rhcbdcdeeccca`^[ZYXY\^begipv{‚‡Š“™—š¢§¦ ˜Šr^`_`[]]enrYCFLTZ[^bn`Zdfb][]\]dfa[^\dlyzwrop‘“‘rix{‚……†‡‰ŒŒ‘’“”—™˜™™–“‘‘‘‹ˆ‡†„ƒƒ„€€~|||{yxtqpomnljjjhihijlmmnponnokkkmnoqqqsuuvwvvxyz{}}~~€‚ˆ‚yleefdeghhfeca`ccdcdfhjlmqv{ƒˆŠŒ‘“™££¡šw_`_`^`_got\EFLTZ[]albZdri`\[Y\dga[_\dpˆ‚utŒˆwmuz€‚„…ˆˆŒŒŒ‘’”•––—˜”“‘‘ŒŒ‰‡†„ƒƒ„€~|{{yyxutrqqnkihijklmnoppqqpomnnmmpqqsssvvxyyxyxyz{{||~‚‚„Š‘”’‰€rlkkhikllihgedefgiiknsvvw{€‚…ŠŠ‹– Ÿ›’}``a__``gpsY=DMTZ\^`jcZa{na\ZX[cda[_\dn“—Œ|x††ƒŒ{vv{€ƒ†‡†ˆŠŠ‹Œ‘“’‘‘”•“‘‹‰‡…†„ƒƒ„€~{|{zxwwvutsnmkjklnoppopqrrqonmqpqrssuvuwyy{{{{{{{~}~‚„†Œ‘•“Œ…{srqpoonkljiggdfhklmosvx{}‚‡‹Š‹Œ’—™œš‘ƒa`b^_^]dks_@BLTZ[^_gd[^€oa\]ZZ^`a[_\dj–›”‚x€ƒ‰~xy|~€‚†‡‡ˆˆ‰‹‹’’‘’‘’‘‘‘ŒŒŠˆ†„„„‚‚€~|||{zxxwvtsqonoonoqrrppprrstrqsrrstswxvyz{{z|{|||€€€€„…‡Œ”•ˆ€wutstrqnnljijfhjlnoqstxy{~€…ˆˆˆŒŒ’–šœ™‘„[__`__]bjrbDBNSXYZahb[c‚mbZ][Y[Z][\]bf˜Ÿ–‰vu{„‚v{}}€„†‡‡ˆ‰‹Œ‘‘‘’’’‘’’’‘‘Œ‹‹‰ˆ††„ƒ‚€~}}{zxwusqpoppoooopqrsrppqrsssrtsssuvxxxz}~}|}}}}}€‚……†ŠŒ”–Œƒyvutuusrsqlkjghijmnpsuuxz|}‚†‡ˆŒ‘’”—•‘†V__``_\bkm^CCPTVVW`la[f‚pi[\ZYXY[Z\]`b™˜ˆqln„zz||‚„……†ˆŠŒ‘‹‹‹Š‡„„……€~~|||{yyvqponmoonnoqqrutrrqstqpqtvssuxywx{~~~~~~~~€ƒ…„Š–˜’†|xwxwwvzvpmjggiijmnprtuy{{‚†‡ˆŒ’““’’’‘ŒT_c[`_\ahl^EDPSUWXZrf[e‚sg[[ZYZ[]\\]`b˜š–Œzrk{…{z{~€€€‚‚‚„†‰‹ŒŒ‹‹ŠŠ‰ˆ†ƒ‚~~}}}{{{zywusrrrqrrrrrrrtvvtsttutrtvxvuwyzy{~}}~}|~~€ƒ‚‚‰˜š•‘‰„‚~zz{{{{vpolkkjjlmnortwy{€„ƒ…Š‘‘“’’Waa[_^[agj_HEORVXXZlh_e‡v`Z[YY[^^]]^_f˜™“‹ƒyit}z{}€€‚…ˆŠŠŒŒŒŒ‹‰ˆ‰ˆˆˆ‡…~|}~~|{||{{zzxuusrrrsvvvvurtuwwvtuvvxyxuywwxy{~~~€€~‚‚‚‚€‚‚‡™œ—“‹ˆ…|}}~}yvuqonlkkklmqtuxz{€†‡‰ŠŒ‹’‘‹]a\]^][`eh`IFNRVXY]ehfb„za\ZYZ]``^]^_c•–‘‹‡…ƒkpƒ€{|~€€€€‚ƒ†‡…‰ŠŒŒŠŠ‹ŒŒ‡††††…ƒ„„|z}}||{{{yxxyxvvsqpqrrrssuuuuuvwuutuvuuuvx{zzz|~‚ƒ‚‚ƒ€ƒƒ‚„„„„„ƒ‚„‰’’ š—‰†„{|‚}zurrqppollklpvxwyz}…†ˆˆŠŒŠaba^_^^\]c[LGNSWXVYckaezub]WWZ\^]ZY\__”“Š†„}tv€z|€€€€ƒ„‡‡†‰‹Œ‹‰‰ŒŒ‹Š‡ƒ‚„ƒ€€~~~|||{{|{ywwxxwvusssurrsttwwwwwuutsrrssrustx{}~€‚ƒƒƒƒ€ƒ„ƒ„„„„„ƒ‚„ˆ•–¥¢ “Œˆ…€~}‚€~zvsrrqppnmnnqvxwyz|„…†‡ˆ‹Œ‡cb`^\]^__aYJDMSWXW\embesvf^XXZ[]\ZY[_a”—’ŒŠˆ„~{xzz|€€€‚„‡‡†‰ŠŠˆˆ‰Š‰ˆŠ‡„‚‚„ƒ‚€}}~€||{{z{zxvvwwwwxvttusttuvwwwwvuuttsssssvstz~€‚ƒ„ƒ„„ƒ€„…ƒƒ„„ƒ„„‚…ˆ’—£¨¤š‘‰‚~~zvvutsrsqqqqsvwxyz{}~‚„†‡ˆ‹‹Š„f``^Z\_bcaWGDLRVXX^fmbcpsd`ZXZ\][YX[^c—™–Š‚}xz€{}€€€€‚„††…‡‰ˆ†‡ˆˆ‡†ˆ‡„ƒƒ†„ƒ|||{{{zzzywvvwwxxxxutttuvvxxxxwvutsstttttvvx|€‚„„ƒ„ƒ„„„…†ƒ„„„ƒ„ƒ‚„‰Œ”ª¦ —‘‹„€~{xxwvvutstvutuwyyzz||}ƒ……‡‹Šˆj^`_[]_beeYGFLQWYY\ek`aqo_^[YY[\[XWZ]`›–“ŒŒ‰„z{€€z|€€€€‚„†††‡‡†„†ˆˆ†„„‚€€‚}~~|{|{{yzxzyvutvvwxxvsrquuvvvxxxxvttsroooopqtxz}ƒƒ…†„„„…„„…†„„ƒ„„…ƒ‚„ˆ–®¬¤š“…€€€~~}|xyyxwvvtvywvtxzzzz{z{~€…ƒ…ˆ‰…~l]`^^^``dhZIIMQW[YZci]^psbZXZY[[[XWY]]›”Šˆ{}yy€~|~‚€ƒ……‚‚…„„……ƒ‚~€€}{|}{zz|||||{wuxzzxvuvwvutvuuvvvttwwvuuttsqonoswz|„†„„ƒ„†‡ˆ‡‡Œ†ˆ‡†…„…ƒƒƒ‡—¤±¨–‹†w{}~~{y{{yyxuuvwxxywuuxz{z||~€€……‚‡f[a\^`^`ef^MGKSWWX\eic\ov__ZZ[\]YWVXX_£›”‘Š†‚ƒzz‚€€‚zv}…„‚‚ƒƒƒ…„‚ƒ€}|||{{{zzzzyzyywvyzzywvwwwvuwwwwwwutvwxwvvppnmmqty|„ˆ††‡ˆ‰‹Œ…„‰‹†ˆ‡†…„„…ƒƒ‡•¢®¨¢˜Šˆƒ|{{|}{y|{{zyvvvvwxyxvuxyzy~}}‚€ƒ„‚f\b^]_]`eg`OJLSWWX[bgc]kra`[YZ[][ZYY[]£œ•‘Š†ƒƒ†…|{~}~~~}}‚‚‚‚ƒ‚€~}{zzzzxzz{wwwwxvwzzzzxwwxxwvvwwwwwwuuuvvuturrqpprrw}…Š‰ŠŒ‹Œ†‡ŠŠ…‡‡……………„ƒ‡”©®¥•ˆ„}|||{x}{z{zwwwwwxzzwwxyyw}|}€‚‚€i]^Z\]]`bb\LGLSWVXY`db^kqb\[[ZZZ\[[Z[\ œ•‘‹‰ˆˆˆ…}|~|~€}|€ƒ€~~‚€€€~~}~}zxvvvxz|zzyzyuy{zyzyyyyyywvwxxxxyvtttssrqrrqqqoos{‚‡‹‹ŒŒŒŒŒŒˆ‰ˆ‡ˆˆ‡…„„„…ƒƒ†Œ‘š¦­«™‡|{{{zx|}{{zzxxwwx{zzwxzxwyyz}|~}k]\Y[^\_ba[LGKSWWXX]``_hod[[ZZYYZXXYZ\Ÿœ–“ŒŒ‹Šˆ„~}~„~|~~~~~€}~~}}zwuuvwz{{{{|{ux{{z{{{{zyxwvxyyyxzvtutrqonmnnnmnlox€‡‹ŒŒŒ‹‰†‡Š‡†…„„ƒ„„ƒ‡Š—¤«±¢‘„|{zwxzzy}}~}|{zyxxxzzzxxywvvvwyz|€€~vh]]]\]]`cd_OKLRWXXX]c``dne[\ZYYYWWWXY\¦œ•””Š‰‚}~}€„}|~~~€€~~~}|{z}€}zxxxxxxxyzyz{{{wx{{||}|}{yxxwuwxwvzvtuvsrnnllkllnmox€‰‡‘ŒŒ‹ˆˆ‰„ƒ‚ƒ„……„„…ƒ‹¡°±¥—ƒ{uutuwzz}~€€}}{zzzyzyyxwxxxyvwxy{~€€sf]]\]]_bcgcQLMRVXXWdnc^bjcYZYWYZXYYZY]šœ˜“’‘‰{~~~ƒ~|~~}~}||||y{|zwxxxxxxyyzxxyzy||{zz{{{{zxxxwuxxwuxvtsssonljkijjjkq|„‰…˜‘‹‹Œ‹Šˆ„ƒƒƒ„…„‚‚ƒ‡Œ˜³À®™˜‡trrrsvxy}~}{{}|{yzyyxxxwxyyywwyz{~~}qg__^]\^acfbPKMQUWVWeqd``aa]ZYXYZXXYZZ]ˆ˜™”ŒŠ†}x~~}€ƒ|~~~}~~|{{||{{zxwvvvvwxyyzzz{||||{{z{{{{zyxxwvxxxuwwurqqnlkhhhhhikr~…‡…—‹ŠŒ‰‰ˆ†‡‡ˆƒ€€€„Šˆ“¦È½œœwonnqsuvy{{zz}{{yzyxwvwwyz{ywxyz{}}{ld`_][[^abfbPKNQUVTX`kdcbcb\ZYXYZXXYZZ[¨‰“”Šˆyw~€}|€‚‚€|~~~}}}}{{{||~|zyzvvvuwxyyzxxyyzz{}~~yyyyzyyxxvxywuuwvqpomkighhhhkls~„†…Œ‹ŠŒ‹‡†…„…†‡„ƒ„…†…ˆ™µË¨™˜€nmmmqsttwy{{}{zzzyxuuvxy{|zyyz{|}|{e`]]Z[[]`beaOJNRTUSWboecgmc[ZYXYZXXYZZ[ö¬vŠ“‡Œƒ…ws{{z~€‚‚€~~}~}}}}||}~~}|zzyxwvvxyxz{zzxxw{{|~~zzzzyyyzzuwxxwvutqpnjihhhhiions{~‚††ˆ‰Šˆ‹ŒŠˆ…„‚…‚€‚„ˆŠ…‰Œ’”»º“š‹xlkpppvrtx|}yz~{yz{zzwx{~~{zzyz}z|u^][[[ZZ]`bd_NGKORSRWawfbjpc[ZXXWWUVVXW[ıûÏq‹Šƒ{xo}}v€‚ƒ€~}~~|||}}|||{zyzyyxwwwwxzzyxxxwyz{yyyyyxyyzzzyxusvusrqnjhhkjjigiq|ƒ‡ˆŒŠ‹‹‰‡‡ˆˆ‡†„ƒ€ƒ‡„‚ƒƒƒƒ‰Š‹‰‡Œ‹§Å¯‘š‰fdiikqrtvxzzz}{y{~~}z{{{|{zzyx}z{q]\[[ZZY[_ab\KEMPRSSS]sebhpf\[ZYUSTTUWWYıûşëÁhu{n_Tn€ƒƒƒ‚~~|||~}{x{{zyy|zzzwttuwyyyyyv{}zwzzzzyyyyxuwxwvutsqpnkhhmlhgejz‰‹‹‰„‚‚„„„ƒ„…‡Œˆ„ƒƒƒƒ…‡Š‹Šˆ†‚—Ÿ‘˜œvefhkqprrsuy{|y{}}|{zxzzzyw|zyl[[ZZZXYZ]_aZKHNPSUTU\mgccmi\YYVTTSTUVWWığÿûûüá”m{™µŒ†‹„„„„}|||}~|{y{zyyx{zywwvtuvyy{{{y|}zxyzyyxxxxwzzxurutrponkhhljihfr„‘‘‘‡Š‹ˆ„ƒƒ„……†ˆŠŠŒ‡€~€ƒƒ………‚Šƒ‡—Ÿ“gccffjloqtx|yxz|}}}zzz{zzxv{ywh[[ZYZXXX[]^WIIOQTUTX^ge^\fdZUVVUUQRTWXVııöûüøüıúûûô‡n‰}„…†„~~}||{{z{|yzyxwxwvvvwwwyyz{||yxwwxzzzzyywvvvwxvutrrponkghihiijv‡–˜–”‰‹‹‰‡†‡„†ˆŠ‹†…„}{{zyxyyzxw|{€ˆ—™™qgfiddhmrtx|xxy{||{{{{||{zzyvzxudZZYYXXWWYYXOCEPRTUUVY\\UV\`YXXUSQPQTVXUıııııııııışì k‡‚ƒ……‡„‚~}z{{|{{||zwxwwwwvvxvtsuuuvxxwvvvwwwwxxutuwwxxvuuuromlmkjikideo”›šœ—Š‹ŒŠ‡„‚‚ƒ…‡…€}xtrqppnssssrsuz€…‡›œ‘fdfljjlpruwwyyzzzx||{zz|{{{|}{p^YXXYXWUTVXTH>ELRURSVVXXYW\^XWVUTSRSUVWWııııııııııüù¿m‰……†…†„ƒ€~z||}{{|{zwwwwwwvtvutsuuuvwxvuvwwxxyz{xwvutuuuwwsqqommkhhhgben}•”•’ŒŠ‰ˆ…‚ƒ~{yurnmklkjimmmmmkmrv|†”šjemimmnqstvvxz{€€|}|{{|{{zy|yl]XWWYWUTTUTRG=DLSVUTUVWWWUYZXWWUSRRRSUVVııııııııııııÕx‡†‡‡‡†…ƒ‚€~}}}}{{|{zyyyxxwutttttuvvwxxvuuuwwxxyyxvvusrrtvwrqqqonligfc`dmy†ŒŠ‰Š‡ƒ~|yvrpmkjkjgefgggfeeeeeffiosx|…Œ”xjfmpoprstvuwvwxxw~}|{||zxxwytfZVVVVVSSTSROE;BLSVTUTTUVUSVWXWVSRPPPRSUWııııııııııııã€‰‡‡‡‡††ƒ‚€~~}|z{|{zyyyyyxussssttuwxyvttuuvvtuvvvuvvvrrrrrqqssqnlhfba]bkv~„ƒ€~zusqnjigfedc``^]]]^__]\^]\__bejptxƒˆ~ofnnnnprsvtvzz{yx~}|{|zyvswq_XTTTTTQSTRNLB9BKQTRSSSTUTQRTVXVSPNNOQQRVııııııııııüığ‡Šˆ††…‡†ƒ€€~~}|||{zyyyyyxusrrtstuxxxwttstuurrssstvvwttrqppqstqnkhfb_\`kty~{xtojihda_^\YXWVVVVTUUVWYYYYYWXZ]agjo{ƒzqohlllnpstsvuvy{{~~}}|{zxtsum[WTTTTTPQTQNK@8BIOSPRQRSSSOQTVWVSPNMOPQRVııııııııııııı¨†‹‡ƒƒƒ…†ƒ‚€~{yyxwwwxwvsrtussuwvvutrqrtvtssvuuvtrqssqpprssqmifec^X[hovutrlhga^\YUROOOOONOPQRRRPPRRRRRTRQTW]`dmwytmmnnooprqrtwyyzyz{{|}zyxwssaVUVWUTQQPSPLG<:CJPSSVSSSQQKSVUTURPOMPQRRSııııııııııüıû¸n‹ˆ†„„„…„‚€€~~€~|{{{wxxxywvussusstvvuttsrrtvussttuvtstroprppqqomhed^[VYblqnhf`[YSLJGCA<>ABCEGJJLKKJIMMMMNMKKMNQSW_lqqlmoolmmoopsvvwxy{z{|{|{zxsn^TTUVUSQPORPKF<9CKQSRTRRQPOLQUUUUSPOPRTUTSııııııııııışşÓiŒŠ‰‡„……„~~}{zz{yxxxyxwvtutstuvuttssrrtvuutrstvuttqpqrmmmmmlgec^]XUYeid][VPLE;:7520258:@CFGGFEDDHGGGGGEDEBAELWelomnpnmklnnosstvwy||{{z|{xxtfXSTTUURQOOPOIE:8CKQRQRSQPPNMOSTVTSPOQSUWVRııııııııııü÷úàm‰‹‹ˆ„……„‚€€~}|yxxzzyzyxxwtuvssuuttssssstuuvurpsvwuqsrqopooomjfdccc[SQ\`\VRJC=6421.-/02359;?ACDBAABBBBCB=877;AGQcmqnlllmmmklosqrtvx}|{{zyxvur`UPRTUSQOONQNHC98DLQQNQQRPNNMMPTWUSPOORSUTRıııııııııışúşíwˆ‰‰‡ƒ…‡†ƒ€€€€}zzyzzyzzxwvuuutsurstsqssttututrqsuutsssrpsrpomljgede^TLSVUNHD>83222001122236;?AAA@@<>><;63179;?BPkprollllmmkkmprstuvzzzyyuzutl\SRQRTSRPNNONKC87AMQSSRPPQPMLMPRTTTQPPPPRTRıııııııııııöıö†‹Šˆ†„†‡‡ƒ€~{zzzzzyzzxwvvvvtssssrrrrstutqqqpqrutsttrrqqonmlmlifdd_WOLJKF?<743677774444415;??==>=?>:7603238?BG[pstromlkjjiikmrtuttxwxwxsztveYOQPRSRQONNMMLC88CLPSRPNOROMLMPQRRQPPPOORTSıııııııııııõûı¢‰…ˆ†‡…ƒ€€}zyxyzzyzzyyxwwwtsrvtqrtqrstsomlmoqssrrqqrqqpomklkigfea]WNFB?;9768:99;:7876426;?;89;;>:6465978=HS`quwywsmligfihjmrrssuxwwwwuvqv_UOOPPRRPONMMMJC79CJLPPMNOPOMJMPSQPNONPOOQTTıııııııııııúùıÁ†Œ…‰ˆ†ƒƒƒ‚€~|zz{|yyz{zzyyxwtrrutrrsqrssrnmlknpqrqppqrrutrqmllkigfdaaZOGC>;:;=>>>>>?=<:::;<>:9<>@<::;=<8:I\gpuv{}}yqnkhgjilnqrrrswvwwwtvrvUONMOPQQPNNMLKIB78DJMPPMNQQPMKNQTRQPOOPOORSTııııııııııûúõıÛ~‰†ˆ‰…‚ƒ…ƒ‚€~€~}|}zzyz{|{zyyxtrrrttrqpqqrroommmnpppooqqqsqpollmljhffgg`YVRMKJIJMMLMMJJGFEC@><;=@DFGIIGDGFNey|xz|€ƒ}urnihhhiloqrssuuvvvqvttMLNKNOQPOMNMKIH@78ELOQRONQQOMJNSVUSRQQOOORTSıııııııııııüşùğr“ˆ‹ˆ„…ƒ‚€~~~}||zzz{{{yyyxvtsrquwwtqppoopoonnmnooprrrrrpppopmlhjjihedb_^\YWWUSTUUTOPOLJGDBBCFLNOKMQOMOTj}ƒƒ€„……ƒ|rkifhjlnnpstssssuwsvxfPMOQQSSQQQMLKHIB:;ELQPNOPQQPNKOQRUWVSRSSTTTTııııııııııüşşûòsŒ‰‰‡„ƒ„ƒ‚€€€~~}||yyzz{{zyxusttuoqtrppppnooonmmmoppmoqpoqqqpppmljkkjiedda_^\XVYUVWXWUSOOPLJJKLOSVVTVXWV^fx‡ƒ‚‚„ƒƒƒƒ}xrmgghikknprppopstqtpUHLOPORSPPPMLKJHB8:EKOPMOOPQPMJOTVWVUTSRSTUUTııııııııııüıııö|…‹ˆ…ƒƒ„„‚€€~}||xxy{{zzxwvttrrprtrpooonnomllmmnppilnnosrqqqronkllljggfdaa_VTXWYZZZZUSVXTSSUWY\^^YY[]]clw‚€€‚…‚‚ƒƒ€€}|shfghhikmnnnmnqsptnMGJMNOPPONNMLKJHA89CKOPLNMNONKKPVYXVUTTQRSUVVııııııııııúıûıùƒ†‡‚‚„……‚€~}||xxy{{{ywuuusqoprtqnoonmmnmlkmnopphlopqssrrsspnmmnmkiihedc`ZWWZ\]]]][Z[]]ZY[[]_a`[[\_bhos|{}~€ƒ€ƒƒ€~vmjiihjlnonnnoqtpskMIILMLPONLMMLKJGA79CJOOLMLMNLKKOTVVVVUUPRTVXVııııııııııúıùûüš„„ˆƒƒ……ƒ‚‚~}||yyzz{{ywtrqrrsmopmioonlmnmllmnopojnqsssssrstrpnnonlkkifeedd`]\]___^_``_a][[[\^_``^_dghjhttx}~~€‚ƒ‚ƒ|wplkkkllorpprqsvqpcGIHKLLNNMMMNMLIH@68BINNKMKLMLKLORSSTVUUQQTVXWııııııııııüüıışº}‰Šƒƒ„„ƒ„……ƒ}|}|yvwwyyxwusropsspqqpmlllkkjjjjlmkjkjknonssstpnnnnpomjigeddcbc^]a`_^_]^cc]\YWZ\\Y[_b`_dhlkknqruvv}~€‚€}zwpjgihilopqtpoqqp[KGGJKKOPPPRLJIHG@89AINOMOLMMLKHMRUUUUUUQRTVVYııııııııııüüıışÈƒ’ˆ†ƒƒƒƒƒ„„ƒ}}~|zwxxyywvtqrqptrqqpmjjlmooljjllkjjjhjmmmopqrollllnljhgfdcccaa]]a`^^_`_b_XURSV[[YZ^bbddefjopoqtuuxy{}}zwvrmjjklnproronptiSHHGGIMOOOPPLJIHF?79CHNNMNLMMMKIQWWUUVUTUUWWWYıııııııııııüıışõ…’Šƒ‚‚‚‚‚ƒ‚€~~~}{yyyyywvtqrqqsqppnkgijlnokjjkjjihghjlkklmopmjjjiihgfdedbbba_Z]`_\^^a`a\VQORVYZYYZ^acdedimomorssrtwzz€{wvuniiiikkmmpnmqr`MGGFFIKNOOPPMKJHF>7:CIMNMNLMMMKJTYXWVVTSSTTUUYııııııııııüüıışşyˆ†€€€€‚‚~~{{{yxxwurqpomollmlkhhhhiigffgiihgfehjkjmkljihhhgfeedcebabba]Y]`^]\^_^`^XXUTWXYZXWYZ^dgfghklmoqoopsuw}ywurlgfffgghjmmlpkZKGEFHHIMNNNOLJIHF=7:EHLMKLKMMLKJPUXWVUTSUUVUTYşııııııııııüııışˆ„…€~€€~~~}|yzyxxutrpolkkijljkjgdedceeeehhffddghijkkhedfhefdbcdacb``__\Y[]_^\_]^a_[[YX[YYZYXVW\dihehiijkosmlosuywtrsqmhffgghijmllnfTLIDDHJHKLNNNKKJIE=7;DHKMKLMNNKKKNRUXWVTTWWXXXZÿıııııııııııüüış•†‡€|€€€~}}||wxwwvutrommkhhlihhifdeeadffeegffdefghiggedaba^bd_`b]ba_\ZZZX[^ba^`^aba^]ZY\\[ZZYXZaimnhefhiimrojkqsptroprpihhijklkjijlbPJJDCHJHIKLLKKKKIG>7<DHJKMLNNMJIMORSWXUUVVWYY[\ÿşşşşşııııııüıış‚„€}|~€€~~}||xywvutspnlkjhijhgfhfdgfdeeecbbcfggffggdbbb`^[[__]^][^_]ZWWYY_`babbfgffed\XZ\\\]\_cjrx€xf_bcgijngglpjomjmpojjijkmmpjikl]OJHDCFHIJKLKKLIHIH=6;CILMLKLMMJIKNRUWWUUVVXYZ\]ÿÿÿÿÿÿııııııüııü¯…€}{|~}~€~}}||zywutsqnmjiiihhfceeecffcbddbbbbdddcccca^\``\Y[^Y\YWZ[\[XWYZ[`ffilkffghjgb^\ZZ^adghkpsuxpg`\_bcheehihe`elmlhghhillqkmnhTNIFCCCFJKKMKILIHIG<5;EJLMKJJLKKIIMQUXWUUVXXY[]^ÿÿÿÿÿÿııııııüııú¾‰‡€~y{}|}~}||{zwtsqomkihihhedcbcb`cdbbdcbbbba```_^^^ZX]\VVZWVYWTWYZZXX^_]bhcce^[[_dijjfa\\_cegda``^bnpkd_]_bbfgbaa^aghiddeeghjkgmj^ONHDCCBEJLMLKIJKLIE;4;DKLMKIJKKJHHKQUXXUUVXYZ[]^ÿÿÿÿÿÿÿÿÿÿşııüüıÇ|‹…~}~|wz{}~~}{zyywsqnnnmmkedhfecb`^_`abddccba_]\^[YZ\ZWYZVSRVTVUUSSVZVY`dhc[VTRRSNOQSWbghhghhiiiVQTRPOU_mpf^\]Z_e]b]Z_cbceddeffddcdgRMIDCCDEGHMMLJHJKIGC;5;EIMOOJJKIGGIKQUWXWVVYWX]bdÿÿÿÿÿÿÿÿÿÿşııüüşÎ|Œ†||{xy{}}}}{{zxxwsqpolijjedghgecb__```cba``_][ZZYYWVSORSRPPRPROMNPW]_`b_ZRLKJHIIJIIIIMUZ]hlhb_]OKNIHILQXaed^XPQ[`V[^[Y_acbcdeecbefbMLHECCDEGGJKLJIJJIGC;6<ELLKLLLMMKIILPTWWWWWYXY^ceÿÿÿÿÿÿÿÿÿÿşııüüÿØz†z{zxyz|||{zyyvwusqomliiifeeghfdc__^^_a_^\]\YWVSUWTPMJLLLKILJGGGMR[_`\VNHBACBABCHEDAAAFKOSTSRQJFEFAEFGDENX^`MIJPXOVZXV[_]_acccbaeeYHJJFDCCDEGHKJJIIIIGC<5<ELLIKMMNNLKJMQUVWWXXZZ\`ceÿÿÿÿÿÿÿÿÿÿşııüüÿäxˆxxzy{{z{zzyxxtuusqklllihgecgfdbb^^^]]_]ZYYXVUSPQPNMHDFFDCDFEAELQUXTRLDA==@BBABCEEB@@BAADIJHFD?@ABBEGEA?ADNYGLMHGKMOTVV\X\`acb`cecPFIIIDABCDFGIJIIIIIGC;5<FKJKJKLMMKJLNRUVWXZZZ[_bcgÿÿÿÿÿÿÿÿÿÿşııüüÿëwˆxwyz{zyyyyxvvrttrrnmjgggfebdba`__^\[\][XVWVTQPOMJLLB>>==<>DDEMSSPLDCA=??@A@@?BB@@@?>@==@DDC@?>??BHEDB?><=CJPSMBB?CHLMT[VY_aba`ec_JFHJJDAACDFFHJJIIJIGC;5<FHJMKIJLKIHMORTVWYZ[Y]acchÿÿÿÿÿÿÿÿÿÿÿşıüüüêz‘‹{ttuwxz{yxvvvusqommjifeddccaa`__[]\ZYYYWTSRPOOIFC@A:87868=?EINQKE;;;;;<>?><;:;;:<>AA>>>====>?>>?@A@BA?<9:<=HJIB:69>DHKRTX\``^__^J?GFFEB@?@EFJHFHJJIFEB<6<CIJJIFJJJJJKNPSUWWYZZcdekpÿÿÿÿÿÿÿÿÿÿşşıüüıñ~Œƒ}vttvwyyxwvtutrpnmljgfecdcba__^^\]]ZYYXURMKIGGFA<:8557969==CED@:666777;<=<88888<<;;:899::;<<=<<===?A@>:8889=BF@834:?BCJMQY^`]^_VC8<;;979>CFEJHHHJIHFDB<6=CJKLKIIJJJIILSVVVXZZ\bdeiiÿÿÿÿÿÿÿÿÿÿşşıüüşò€‹„xsqsuvwvutssqonlljihfeddbaa_^]][\\ZXWUROKJGCD@<73201369;><@=952311113788643446:9765789::9:887899:<=<;8654317=;50159;AHLRV[]\\`O>6446423<DBDGIIIHGGFDC;6<FJLMLJJIJJJILRWWXXZ[[]adceÿÿÿÿÿÿÿÿÿÿÿşıüüıï|‹…‚{rnqrsutsrrqnnmlkiggfdcba`a`^[Z[[ZXWUTPKJIFCA863320//23775632111000/0121///123543343578776554456667644420.-/23200268?HLRTXZZ[\C86123322;A>EGIJIGFEEDB:6=FHIKKJKIJJIJMQUWXZ[\_^cfc^ÿÿÿÿÿÿÿÿÿÿşşıüüüèx‘Š†‚{snnpqssrrqpmmlllhgfedba``_^][ZZZZXVURNJHFC@=643230--.-//-../..,0000/./.,-./1212111.01244333223341232220,+,++-/00247=EJPRVZXZR:23,/11/2;><GFIKJFFFFDA96<EFHIJIKJJKKMNQTVXZ[\cagkh]ÿÿÿÿÿÿÿÿÿÿşışüüşäxŒ‰‚|vpjhjnqqponnlkjheeedcb`]^YX[ZYYYZWTSPMJGEB=;53.--+,)(***+-../00/134447:=;877:55320//1200122777777654540,*'((*,//147>DGLSW[[YE624-10//2:@>FFHIHJHHGC@94<DGGHJJKIKLNMNQUUYZY\_bfil\ÿÿÿÿÿÿÿÿÿÿşışüüşÚ{‰‚}wpjggjlmnmmmkjhheeddca^]\[XVWZYXWTRQNKHDB>;730.--.-,,-,+,.369<>@BDGHHIJKNMLLNIIHHGDEGGEEEDEGGGFFBBABA>82.,*))+--/37<CFMTY^[S<2130//..0:@>DHFFGJGHGC@95=DGHIIIJLKLLLNRUVYZY]`aejmUÿÿÿÿÿÿÿÿÿÿşışüüüÉ{‰ŠŠƒ~xrmigijjkkkkjiffddcca^\[[YVUVXVUURPOLIFB@<8532//0037::9679<?BFHNNNPQTUVWYWWWXWWXXWTTTVY[ZWWTTSRQONMLKHA<863/---/169?EIPTV\YG41/00...//8B@CGEDGJGHGD@95=DIIIHHILMLKKMRVWZ\Z]_afilWÿÿÿÿÿÿÿÿÿÿşışüüü¾€‰ŒŠ„~xrnhddfgijjiigfddcbb`^[YZTUWVUPRSRQLJGDCA=9664234;>CFFDBBBCEHILMOOQU\^_a]ZZ[[[\[]]\]]]ab`][__]\[YWTQOMHDBA?965015:<>EHNOOWQ811/,+,-...7B?AEFGGEHHGC@95<CHIIHGHLOLIKMRXY[\[^_bfilSÿÿÿÿÿÿÿÿşşıûùøûù³„’Š„€yqmebbefffhiigffcbb`__][ZUVVTROOPPOMJGB@><;<;98;=DHKLMKIHIHJKLJMORTZa`^\[[\]^]ageabdeedbbcccdb`^ZUSUUOGDDGD@>7567:==AEJOPSI4./-,,++---6A@?BCFFDFEDA@:4=FHHGHJJKKLLKMRXXXZ[^_acgjIÿÿÿÿÿÿÿÿşıùûüûûı¦Š—‰„€yqlecbcccdhhgfefb`_^_^]ZXUVUSPONMNLLIFC@><=>><=@CILNNNLKKLGIIHHLMPQTWXZ[YXZ[]]^cdaba``_``ba^`a`^ZURTTNIGIJFEB;988:==?CHJNK;/.-,,+*++,-6>?@ADEEDEDCA?94<GHGGHIJIIKMLLNQUWZ\]``bfiQÿÿÿÿÿÿÿÿşııôùù÷íŒŠˆ„€zsmgfc`_`dgeddeeb]Z\][ZXXSSSPNNMLJJIGEDA???@ABDHJNPPPONKLNJKLJHJKMONOQUVVVWYZ[X\a`_\YXZ\\]^X[]]\XUTTTSNKLKIHGA<;9:<<>BHFKB/---,++*)+,-4;<AACDECEDC@@75<EFEEGIHGHKMLLNRTVY\]`_beibÿÿÿÿÿÿÿÿşıûşøşå‚œ‰‡‚€{smhgc^]^`cabacba\XYZYXWVOQONKLKIGEFDCDDBABCCGLOQRRPMLKJJMPPONKKLNNNNMNOQRRUVWSV[\ZXWUVWXYXTVXXVVUTRUTPLIKIJJD@>::;=@DILJ<-.,,++*))+++1:<@@BDEDFDCA>66=DDDCEGEDFJKILPUUTW[]__aeh`ÿÿÿÿÿÿÿÿşııöùİw}•‹Š‡‚€zsmihc^][\^_`aaa_\ZVUVVUTOOOLKKJGEDBCDDEDBCDEKRTTSQOKIHGIJOONKIMNNONLMMMNOQRSSQUXWVVVVUUTUVTUURQUVTRPPOMJHGIJEC>;:<@CFLOE4,*,+***())*(/;==@ABBBECBA>56=BDCBDFCCEIKIJLQQSW[]^^`dheÿşşşşş÷øú÷ùş×o\‡•Š†‚~yunmjc`_ZXX[\_`_^\[ZWWWUQQPNLLJIHHFEDDFECCDEKMPRQRROIHJHGFPOLIHJKKMLMNLHKLMMNOQSUTSSRQQSTTSSPMMPPPONOPOLKKJHGGDB???AEFJL;.1-)**('&()))1:;<>?AA@BBCA<54<DDBAADEFGHJLLLNQVZZX[`dfk\ÿşşşşşùù÷ıûÏdoƒˆ”Š…ƒ}yunlida^ZXWX[]^]]\[YXWWUQOMLKJJHHHGGEDDEDDEGNOSTTRQOJIHFEDGGGHGHHIJIHKLKHHIKKMOPQQLMLKKLNNMLJJLMONNMLNLMLMKJGHC@>>?CFJK?2*-()*)('%()((19:;>@ABA>@?=;55=DFDCDFDEGHHIIJLPSWXVY_aej_ÿıııııù÷÷ô»zo{m‰’Œ‹…‚}xunkgeb_[WVUVZ[\\[ZYWWWUQMLJJIJHHHGHFDEFEFHKLNQQQSQNMKIFDB@ABDEDDEEDBEGJHGIIJIKLLKJJJJHIKKJGIJLLJJJJHIJMOMLKHHB@>?ADING4.,.*)**)'&()((/8:;<?ABBBBA?;54<DFECDFCDFGHGHIMOTUWUX^adjbÿüüüûûù÷ø¤e{{ki’Š†€}wtpjfec`[VTPSWYYYYZZXVWTRONLKJJIHHGFEFIHGGLNQSUUTSPNONKIFD??@@A@A??>==?CCDEEFEGHFFEFGGEEFGFDFGEDBBDDCDGMQMLKIIDCBCEEJM=0.---)**('%()(&-79<<>ACCEDB?;54=DDCAACCDEGGGIKPQUXXV[`cfmdÿüüüüûıï‹d}pufaˆ†€€|xtpiffc`[VTNQUXXZYYZXVVURQPNMLJHHHFDEHLIIJMONPQPQSQNPPOKHEAA@A@?>=<<:88<<<==>CDEC@?@@B?>@A?>@@=9==>@@@FMRMMLJIGEFGHHKI6-.+(+)*)('&()(&,7:;;>ABCBA?;944<DB@?@ABBEFFIJMRTVZZX]ceiogûğıôûúäˆt}qlhfJŒˆ†‡‚{xuqkfdc^[[WPOOPQSVXUTTSQOMMNPPPMKIHJHIIIKLNOMNNOQRSOOQPNHECA@?==:79855450012387687545675345311359;<?=ALRQRRPMJIIIKKKL?0-,,+)*('&%%&''(-6<<:<?@@A?=;836>CAAAAACFFGIHHJMQTXYYZadeimûıøúúêc|olhbZ[Œ‰‡…{wupkheea\ZUVROMMPSVWWVUSRPQPQRQPMLJKKKKJKLNONOOOQQSPPQPOMJIGD@><:976321/00/-,,*)++)()*--,,-1/02449=ACGNQORRQOLMLLMNPJ5.-,++)++)('&''()-6:;<?ABBA?>;935=BA@AB@DEFGGHHIMPSXYY[adeigûôüôë}j…ulbe\Vy‹‰†„€~zwtpnjfgc^[UYUPMLMOQUVUTRQRQQQQPPNMLLLLLKKLNONNOPQPRPQQQRQOMLGDB?>;96210/00-*'('&((%%%(++*++/0/347:AEJMPQORSSQOQNNOPN@-,-++))**)(('((*)-598=?ACBA?>;935<@@@@@?BEFGGHHJMQSWYY[acejkûıôú„uymma\\TWŒŠ‹‰†€~zusoolffb`^ZXUQNMKIJMQSQONPPONMMMLKKIJIJKLLMOOQPQQORPQUUTSPNLKIHDDA<7631///.+++(()*('(*,,+,-22468=@EILPPRRSSSTQQNMMNE3,*+*+)(&&&&&'()*(-588;=?@@A@=;835;>>????CEFGIHGIMPSWYY[adejhûùù¦lywmdbWUKU–‰ŠŠ…€}yusonkheba_[XUROMKGFINQOMNPONMMJIJKKHEFJGJNMLQRRSTSSRRUVTSRPOLLJGGEB>;851//0//++*+-***,.-,-.578;>BEIMOORTURQQPPNQMKK:.+***(()$$%%%%'')*.376:;>???=<9744;@??@??@BCEFFGIMNRXXXZ`ehicùş¼l{of`ZTWLc‹Š‰…‚}yvtrmjheca_\YVSOMJIGHKMLKKONNNNJIIJKHGHKJLQPORSSTTUUTSTSQQRRQNLKJJIHFCA;9:::862401413469834:=>@BDJKNPPPSUVRRQQONRPKC2-*++))))&$%%%%%&'(-3669:=?@><:7644;@@@@@@??ABDHGHIKRXWWZ_fjji÷âb€wkf^ZVTOAƒŠ‰ˆ‡†‚}xvsplihgec_\YWSOOILJGEIKIGMLJJLLJGGHLLMKKNQRQQRSSTUUUSUSQQRSRQOPNMMNMMKHEGHHGDCD=;>:=@BGEABGEGIJKPRRSSSTVVRUWTNNMQH7-++-,))*)&%&&'$&%%&,26698;>>=:975329????@??@BDDFFFIKQVUW[^chkoâmyyojb[YWTS`ˆ‡‡‡…‚~|ywtokghffd`]XWUQPJKIEEGIIHJHFGGHGGHJKLKLJIKMNQQRSSUUVVXWUTUTTUTUSRSSTVTSRNORTSPPIGIFHJKKMPOLLMNOPPSTVVVWVTUVWSNMJI=1,)),+)()*'&&&&%%%#%*25667:<<<:864009=>>>>??@BDDCDFJLPSTX]^afjtŒo}mie\WVUPI„†}†‡†„‚||ywvnjggffe`^XWURQMIGFECBCFHFEEEDEGJMLHHJIIJLNPQQRRUUVXWVSSTUVWWXUWWXY[ZYYXZ[\ZUTPORTTSSUWWWWVVVWXZZYXWXXWTVTRPOJI=30-(')*)()*''''&%%$#$)157569;<;:854//7<>>>>>AACEEEDFILPRSX^]_djv_xngc[ZUTRP`’‰‡†…„‚~xvsomifggd`]\WSQSQMHHHFEDDDEDFFCDFFHJEEGMLKLQPPQTWWWWWWWVVVUVX[\VZ\\\Z\]^]]\[[Z[ZYYYWYXWXZZ[X[[Z[`^\[\]\ZYSSPMNLF5./,)'()(()*&$$$'%$#""&/456559=;85760168<==<<@EFFCBADGLMPSUXZ_fjg}sjc^YSRQOL•Š‚‡†„ƒ‚}yuspmjgffc`^[XTSRPOKHIH@>CBBCDEDDDDDDACHHFEILNOPSWXXXYYYXVTVVY[\Z\^_]]]_a[ZYYX\]]_^ZZYYZ[]^_\\_^^^]]^^\[ZYWTQNKE?3,-,(((+*('($##$$%$#""&.36777;>74232.179<>?>=<?ABACDFIKLORUZ\_fihpld^YTRPMLZ«v†…‡…„‚~yvspnkifeca_[ZVSRNPOIHHC?>?@ABBCCBAAB@ABCAADINNPSVXYXXZ[XVUXYZ\\]_a`_]^_a][[YYXZ[\\YYYYZ[]_a[^abba^]]\][ZYXUPJH=6.+++(((,*'%%$#  "%$#""&.23678:;87541,/7;<<<==<=?@ACDFJJLNQTYZ^dfhte^XTOPPKTm³n‰‚„„„‚€}yvtpnkiedca_\[XTROOMKHHID?<==>>>?@AAEC@>BBBFJNNPSUUVVUXYYXWY[\]\]^_]]]]\]^]\[[VVVUUWVVVUVY[^Z^bdeea\[[][ZYXTMEA7/--++)(()(&%&&$"!!%$#""&-123578688841,/57779;;=<=@BBBEGILNQTVVZ^bfeaZTPLKLLdƒ²wˆ…„‚€€}xvsqolifccb`Z[ZUPQMKMKIGFF;;;<>:<?ABADCBDDEIOMMORTSSRSUVXZ[\]]^^\]^\\\[Z[[ZYXXXYURQTTTTQQSWZW\adeb`]^]][ZYWQJA<6-.0+,((('&%'((&$#$%$#""&-11/25413650../4544579:88<>??BDHKMPSRSVZ\faWTOLJINPr™œr„…„„‚€€zzywutsniedcca\\ZWTPONNLKJGCB@>:9:99<==?@BCEGIKLLMNNMPRQTVUTSUVXZ[[ZWWXZ[ZXWVTSSROMLMOOPOQSTSW[\]__^]\\ZWUTTPKC93.,+,,(('&&&&&&$%&$%&$#!"&+/1.010.//.--+064100135359<8:<>CFGHILOUZ^hZUQNKJIMWzŸœp‡‚„ƒ‚}~}zxuqlkjhda_\\ZWTQPNMLKIIFEC?<:877898<@DCCFGHJJKKLLNPPQRPPQVVWYZZXWVUVWVTVURRRLJIHIJKMNMOOOSTVWYZ[ZYYVROONIC91.+)(())'&&%%&&&$%&$$&%$!"%*/0.010.-,++*+05400/024358:479<?BDFHOPTWYdXQOKIIIOd…“l…‚ƒ‚~~~|yvqmmljea]]\ZWTTROKLKIIKHGC?<8655659>BA@BDDFHGHIKNPQOLHJMSTTUUTTRPPPPPNRPNLNJIGHHEGHIHIIHMPRUXYVVVTTSMKKD=4.-)'%&')'%$$#$&&$%&%#&$"!!#*.0,///,+*)))*0430/-022268978;=ADGIJJNTZ\YTNLIGGJTqŠ—•sƒƒƒ‚€~}}~|yxvsolkieb_\\ZWTUSOMLLIJOMIFA>9767767;=>>?@ADDEFFGIKKKFBEKOONONNMKJIJKJHKIGFFFDDEFECBA@CCBGKLOSTQQQPPNIGEA80+-)'&'((&$""##%&$%&%$&%""!$)-/-./.,,,*)*).42/../10477668;=?BEHJILSY]_OLIHGGM[{‹–•p~~‚~}{{{xwwurmjifda_\YWVUSOMLJGJNNKGDA>9666778:<>==>BBDEFBCCDFDABHJJJIHIGFEFGFEDEDB@BA@ABDDA>==?@@CEFILNONMLKIEC@=6,)***'(*)%#"!"#$&$%&%$%%#!"#'-/---,,,,+*)).21/.-.//2565669;=?CFHKNRUXbMIFFGISWˆŒ”Še}‡‚}|zyyxxxuqmmigfb`\VUWUSOONIHHKMLJGEC@:6686567:;8:>@BEGB><BBBCCCEEFEB@@BBEE@>@@B@=@>?ABCA=::<=>?>CCCFIKGFFEED?9420,)')$$(%#"!"!"#$"$%##$####!%+.-,++**)((&'.001/-.-00345879<<@CEFHNPSXaJGFGGJMj‚ƒvz…€€~}|zxywxwtpnligfa^[WUWVSPPOMLLMMKJGGFFC=:742225536<<=??<97:<=>?@?AB?>:8;?C@;:>=>=:<<=>??=;:::;<<;=<=?BCA??@??8//35.%'(%$%$$#"!""##!"" ##"!!!%-.,++*)))('&&,100.,--022454679>ACCCHLOQU]GDDFILUw}wVuv„~}|zyyxwtspnljgfb_^\[ZVTQPPOMLLLKKIHFEC=;:51/-01/4888887644578;<:;<:8678<=:88;8:969:::;;8::888987889;=;99:;:81*(075/'##$#$$###"##" "!!#"!   (.,++*))((''%%+/0.,+-.113455678<@BCBFKMOTYDCDFJNauŠ~Œdry{€}{{zyyxwsrpnmjgfb\]\ZZWTQPPNKIJLLJJIIEAA@>83/,/0.3553226652135897875433256698657625878874797677538778:865872,((',5>B7($%$##$$$#"!!!#$$""!  !)/,+*))('&&&$#+/0,++,.01245789;;=ACDEJKNSVCBBGHQ`zH«okxv~~~{wxxvtrpqnlljh^]\ZXWUTRPOMMMKLJJLIIFCBA??93/./03//-./4310003343320/./001355512224666665474233223444341142-(&&'+1:@GD5)''&$#%$"!!!!###!!!!!%*-,,+++(('&$&-.,,+,--012346679;>BDDGIJNQWDBBHHScuƒH®¬i_…|}~|{wwvvuqoqokjkia^]ZXWUTRQNONMLLHJLHHGCBB@?;51/-.-/,+-.21/...//020/---../001220/01212111325300101/0200/.,/-)&##&(,27@C@4*(('&&%$"$!!"##!!!! !$),+++++**)%#',.,*++,-/02346569;>ACDFGIMPSBCBGJVksyR¯º]i|z{|{xyvtuwroqojgije`_\YXUUSQONONLLIJLHHFDBB@?;752.*),+*+,.-,,***,-..-,++,-.-.../.....///./..2/--...+---+)(''&"!$'*04;;CA6-+'%$$"#$!!"#"!!!! $(++++++(('$#&,.,,+,,-/023554579<@BBEFHKNPBEAGJYmhP©Ídj_vxyxvvuttuqoqnlhgifb`\XVVUSRPOPOMLIJLHHECABA=;:851-+)('())(((('()))))))))*+*())*,++*),----)*-+)**+*&()(%%&%"""$*06:7=CD@;3-(%#"!  "#$!!!! #&)*****''&#"&,.,,+,,-/023544468;>@@EDFJNNBFAFJ[bS‡¦·hzAvxxvttvwtrrpqonjfgdca]YWVUTSPPQPMMIJLHIFCBBA=:;:7300(&&&(%%&&''()*'((('''()(%&&')*)''(((((((+(())((#%&%#$&%!  "#%)-5==>BA=500.)&%!"##"!!!!  #&')*)))'&%#"%,/+++,,-/022543367:=??BCEILS