P5
200 200
255
ÿÿÿÿÿÿÿÿşıúşşÎ‰„qjori_]`_`acec`\VPTTTSTUPIGGIIIHHFGFEHLLOYbgihjkjmrtvwxxz{|}~zyxvuuuuvwwtssstttsrqpoopqqqqqqqqronllijmnmllmmnnopqrrpqqpmmljhikhdgkhgijjigilkgb^\ZTQMHEAA@@><;;87776657765457885588514;ÿÿÿÿÿÿÿÿÿşış÷Ì•„~lqijc\\\[Z[]ab`[UPUSSPOPNIFEEFGGEEJGHMPNR]inomsnjouuwy{}~€€}zzxxwwxyyzyxwvwuuuutsrqqrqpqrrpoprsqolklmommmnnnmqrrpoooononkjjljhhihhiklkjjllhdf`\\UPMIGDBA@>;::98644557552356556663107ÿÿÿÿÿÿÿÿşıÿÿşé—|u„rffeb]\ZZ[[]^^\[YVVTRPNPMJGFFEEEDCHHKRWZ\clrwy~yty{{z{~€‚‚‚‚€~|||zyyzz{{yyyxututuutrqrqopsrpnorsrpmllmpnmmlllmqrrpopoooppnmlkkiiiihiklkjnonkhdb_`^ZSQOKDCA?<:::8643555655689865664344ÿÿÿÿÿÿÿÿşüşûııô¨„orlecb_[]\\\^^[YZ\\TTRPNQPMJIJJIHHGKOT[aiknsx|‚{~~€‚„……„ƒ~}}|zz{{{{|{yywvvvvvttsrrpqsrqnnooooommnponnnnnnpqqqttqpppqrrokkjhgfghiijjrpmlkdgd_ba[YXODDA?=::976444444479;;:73577684ÿÿÿÿÿÿÿÿÿşÿıúıì­‰pqjecdd^`]\\^_]ZXXXSRPPORPMLKKIIIKMPY_agot{~‚‚€‚~€„†‡‡…ƒ€~}~~~~~}}}}|{{xxxxxwuvustsqrrqqnnmooqonnpppppppppoqrvuutrrtuuqnjiheefgikjjolllmnoj_]_]\YQGFCA<:997655555545689963678764ÿÿÿÿÿÿÿÿÿşıÿşşıÎ‚urlgdjjb^\ZZ[]\[XUSQPPOOPMLJKJHGIOUYemowƒ†‡…ƒ†„„…ƒ‚€ƒ…†‡‰ˆˆ…‚€€€€~~}}|yyyyxxwwvuutrqqstrpnpqrponoppqpqqpoopsuuvwxxwvutspomkiijmmlljmpqqttrld_][ZTMGDA=:887765433334467666776544ÿÿÿÿÿÿÿÿÿıøşúüùö¯{gmielmf]\ZYYZ\][WSQQOOPMLKJJLOPU\cgv€…Œ’Šˆˆ„‚ƒƒ‚ƒƒ„†‰Š‡‰‰‰‰†…ƒ‚‚‚€€~~}|zzzyyywwwvvvsqqtvtqoqsrqonnpqqrqqqomqstvwy{|yvttvxutrpmmooomiotvvtsw{rf_][XSIFA=9787776544334667778876364ÿÿÿÿÿÿÿÿÿÿÿÿÿÿûùìrekihgff`_][[YZ\ZWTQQOPPILMKLMP]gou…ŒŠ‡†…ƒ„…ƒƒƒ…‰‰‡†‡‡‡„‚…ƒ‚ƒ„‚€€|zzy{{xwwwyvvvuvvtsssrrqomlpqrrsrrssttvwxy{z{ywutxxwvusrrssspmpqprrr}„xmf`XPME@=;974367765326533657897467ÿÿÿÿÿÿÿÿÿÿÿÿÿÿùüó¦?gljeb___][[YXYWTTRRQPOMNMKOU_mv~†ŒŠˆ‰ŒŒ‡„†ˆ„ƒƒ††ˆ‡‡††‡‡‡…„‡†„‚‚……ƒ€€~}|zy{|xwvuwwwwwuuutsssrrqooprrsttuuvvwvvxy{zzzzzzyywwvxxxyz}~yyyxv}€ˆŒˆ‚qd[UPHDC?974235555557544666777679ÿÿÿÿÿÿÿÿÿÿÿÿÿÿúşùÑ8qkiea^]]\[[YXWUTSRTWYXXYWU[dpx{}ˆ‰‹“’Œ‰†ˆ‰†ƒ…ˆˆ††††‡ˆ‰‡„„†„ƒ‚ƒƒ€€€€~|{|}~{zyyyyxwwuvuussssrrqqqrrstuwwxyyvwwyzxvxz{}zzzzz{{yz}€}~‚‚‚‡†–“Œ€ti`UMFD@;74235355777645776666679ÿÿÿÿÿÿÿÿÿÿÿÿÿÿşıúÊ=khfdaa\[[Z\[ZWUUWUZafeaaa`ejtz€ƒ†”˜—•’‹ˆ‡‰‡ˆ‰††‡ˆ‡††‡†ˆŠ‹‡ƒƒ„‚}}~~|}~€~|{{zyxwvvuvtttsssssssssuuvwwwxvwxy{wvxz|~z{|}}|zxz€„†€‚ƒ‰Œ‡Œ–šœ”‹{l`ULF?=:7456456787766776435656ÿÿÿÿÿÿÿÿÿÿÿÿÿÿûúşº_ohfc`^ZZ[[[]\XVXY^cjllhlnnqt}†Œ”’”–•’“’Š‡„ˆ…†‡…Š‰‡†‡‡†‡‰Š‹Š‡††„„ƒƒ‚€~~}}}~~}zzzzzxwuvwvuttsssttrsstuutuvvvuwxyzzy|}~||}~~}y|ƒ†„~ˆ‹†‹Š’”’„xl`TJC@>:878676668766776324635ÿÿÿÿÿÿÿÿÿÿÿÿÿÿıùı—vujc^]_`]ZZ[[YWX[]ddnyxwwtu{‚Š’–——˜šš˜”’’Œ‰ˆ‹‡„†ˆ†‡‡ˆˆ‡ˆ‰ŒŒŒˆˆ‡……„„‚‚€€|}}~‚€~}{ytyussuvutsspqqrrtuvvwwwwwwvwsv~}xwy}~||{}~}|y{‚„‡ŠŒ‘——“•˜•‘Šƒul^OHC?;<<;788779867:<<931634ÿÿÿÿÿÿÿÿÿÿÿÿÿÿıüı›Œfe]Y[][YYZZYXY\`jnx~{}}~…‹•˜˜™˜™—––“‘Œ‰‰Š‰‡‡ˆ‰‰‰‰‰Š‹‹‹‰‡‡‡‡…„„„ƒ‚ƒ€€€‚€~}{yvwxxyxvvuttqrrstrrtwyywwwwwwuv||yyz}~€}|{}~}{y{„ˆ‹Œ•‘‘“›œ—–”ƒ{pdZOGA==<:=<97665558;@A:2164ÿÿÿÿÿÿÿÿÿÿÿÿÿÿúüù”ygi_Y[ZYXXYYYXZ^bnw€†„€„†ˆ“”™š™›š˜””””’‹‹Š‹‹ŠˆŒŒŒ‹ŠŠ‹Š‰†‡†‡……„…ƒƒƒ‚€€€‚‚€|{y~xywtwwuuttsssttsrtwyywwwwwxxy|{{{|}||z}~}{z|~ˆ‹•˜š˜—˜˜ˆ|od_TJE@?=;>=;9876667:AFA8/53ÿÿÿÿÿÿÿÿÿÿÿÿÿÿúüû’tkjd_^XYZZYYXY\aep{‚†‡„ˆŒ“–™›š™›š—”“•”’‘ŒŒŒŒ‹ŠŒ‹ŒŠ‰†‰ŠŠ‰‡†††…„…„ƒƒ‚€~€€‚ƒ€~|{yypwyvxwwvutttuvvwwvvtuwwwwwxzzz{}}~€€}{{}~}|||}~‚ˆŒ‘™š˜™š•ƒymd[PICB@<::;<<9:;:9:=BE?733ÿÿÿÿÿÿÿÿÿÿÿÿÿÿşúı’yvldcd]XZ]]\ZXY]chu„‡Œ‹’“•™œ›˜—š–—–”““”’’ŒŠŠŒ‹Šˆˆ†‡‰‰‡ˆ‡††…„†„…„„€€€ƒ€‚ƒ€|{xl_ovrxxwwwuuuvvxwwvvuuwwwwwx|}y{~€€|{{}~|}~~|}‚†Š‘–Š™š—™˜–‰†vd`WMFD@;889999;;979<=@B?65ÿÿÿÿÿÿÿÿÿÿÿÿÿÿıûüˆsnjaabZ[\__\XXZ^div~„‰“•”–™š™–•————”‘’’‘ŒŠ‹Œ‹Šˆˆ‡ˆ‰ˆ‡…‡‡†…„„………„…ƒƒƒ„†ƒ‚‚ƒ€€~{ywnx|z{xvuvwstuvvtuvvwxxxxxxz}}z{~~€€€}||{||||}}|€†‹‘’“•”™›•–š˜‰„u_\WNHD@<9:86478986:=:=@?<:ÿÿÿÿÿÿÿÿÿÿÿÿÿÿşüú~wiic`_[_]_`\WXZ[cit~†Š’“’“—˜—–˜˜˜˜•’’‘Œ‹ŒŒ‹Œ‹Š‰‡‡ˆ†‰ˆˆ……††…‚ƒ„„…†‡ƒ‚ƒ‚‚„ƒƒ€€€€|zxxyyz{zttwzstuuttvvwwxzyyzy|||{{|}~}~}{xz{|}~~ˆŒ‘’’’”•”’”›™’ƒzjdZQKC?=:;:7365478:99<=@=:ÿÿÿÿÿÿÿÿÿÿÿÿÿÿışş}rrkb__^_\\][YYZ[dnyƒ‰‘“•””˜˜——™š—–”’‘‘‘ŒŒŒŒ‹‹Œ‹ˆ‡ˆˆ‡‰ˆ‡†……†…„ƒ„…………‚‚ƒƒƒ‚€€}{yyyzzzxuuvyvwwvuvvwxxy{{{{{{||{{|}~€}}}{z{||~~„††Š“”’’•—––™˜•ŒyqeYSMFA?=<;87664566468;<:8ÿÿÿÿÿÿÿÿÿÿÿÿÿÿûşøtqvmc```_ZZ\[ZZZ[gr~†Œ’‘”–––™˜–”“”“”“‘‘‘ŒŒŒŒŒŒŒ‹ˆ‡‡‡ˆ‰ˆ‡†„…††…ƒ„„„……„„„„„ƒ‚‚‚‚~}{{zzzxwwvwwwxxxuwwxxyz{{{||zz{{|||}~~|~~}{|}~~~€ƒ‡ˆŠ‘’”””—›”‘’•ƒytcTQKHED?=;988644554564355ÿÿÿÿÿÿÿÿÿÿÿÿÿÿÿûÙ_tynebb`_YWZ[Y[\_hr€ˆŒ‘’–—–˜š˜•’‘‘’’’‘ŒŒŒŒŒŒ‹‰ˆ‡ˆ‡ˆ‰‡†ƒ„††……†…„ƒƒ……„„„„‚‚€€€|{{zzwvwwwvxxxvsxyzzzz|{{{|xyz{||||}~}|}~~}}~~€‚ˆ‹ˆŠ’••””“Œƒsk_TPKECA?<9888543444653/31ÿÿÿÿÿÿÿÿÿÿÿÿÿÿúşÖe{qmhfd__XUYZYZ_cjr€ˆŠŒ“—˜–˜›˜•”•–‘‘’‘‘ŒŒŒŒŒ‹‹ˆˆ‡‡ˆˆ‰‡…‚„††††‡……„ƒ‚‚‚ƒ‚ƒ‚‚|||zzxvxywvwwwtqxz{{{{}||}}wxzz}|||}}}|~~~}~}~€€„‰‰‡Š”’‘‘•—™—‘”Š‡rjgZSKB<:>:767753332057520/ÿÿÿÿÿÿÿÿÿÿÿÿÿÿ÷ùækŠnkfec^XXYZZ[^`dmvƒŠ‘“—™˜˜ššš™™”ŒŒŒ‹‰Š‹ŒŒŒˆˆ†…„„…„……„„‚‚‚„ƒ€‚‚‚€€€ƒ‚€|||||xvttuvxvuuuwxyyzz{|{yvwwyyz{{|}~~~~~}}}}~„…ƒ†‡Š‘’’”“””–—“ƒ{tcWRNF?;9874588542100025/0ÿÿÿÿÿÿÿÿÿÿÿÿÿÿıüö”£mmgeb]WWYZ[[^`dnx‚ŠŒ”–˜™––š™™˜˜•’’‹‹‹‹‹ŒŒŒŠ‡„…††……………„‚‚‚ƒ„ƒ€‚ƒ‚„ƒƒ€{{|||ywvvvxxwuvvxxyyyz{||zxxxyyz|~€~~~}~}}}€ƒ„…‡†Š›—’’––•˜xn^VSNG@<987545555531002302ÿÿÿÿÿÿÿÿÿÿÿÿÿÿÿış‘‡inhe`[XXYZY[]afpx‰–˜š™––™™˜——“’‘‘ŒŠ‹ŒŒ‹‹‹ŒŠ…„†‰††……………ƒ‚‚„ƒƒ€‚‚‚††„‚}}|}}{ywvwyywvuvxwxyyz{}|{yxyz{{}~~~|||||}}}~‚ƒ…‡†‰“”““–™–•—…xl`VSNHA=987542235652100112ÿÿÿÿÿÿÿÿÿÿÿÿÿÿÿùşumuoie_YXXYZZ[]afqzˆ‹Œ–˜š™—–˜˜—••‘ŒŒŒ‹Œ‹Š‹ŠŠ‡…ˆŠˆˆ‡†…†…„ƒƒƒ„ƒ€€‚ƒ„‚‚‚‚†„ƒ€}}}}}|{yyz{zxwvwxxxyyy||}|zyz{z{}||||{|||{{~~~~€ƒ†‡‡‰Œ••’“—––˜‡yneXROHC?9875512246542/0/01ÿÿÿÿÿÿÿÿÿÿÿÿÿÿÿüãdvzqjd^XXXYYZZ\bfq|ˆ‹Œ“–š›š˜––•””‘‘‘‘ŒŒŒ‹‹Š‰‰‰‰‰ˆ‰‰‰ˆˆ…„††„‚ƒ„„‚€‚„„„ƒ‚‚„‚€}~~}}}|{{{|{ywwwxxxyyz|}~}{zy{{|}~}|||||{~~|~‚‡‡‡ˆ’‘’“–”’”‹„wkfXSOHE?9875433334452/.../ÿÿÿÿÿÿÿÿÿÿÿÿÿÿşù¦re{ukd\VXXYZZZ]ait|‚…‰Œ”–˜™˜•“”–—˜””“‘‘ŒŒ‹ŒŒ‹‹Š‰‰‰Š‹ŠŠˆ†…„………„ƒ„„„‚‚„„„„„ƒ€€€~}}~}}|zzz{}|zyyyyxxz{yz{{}z{|}}~~~€€}|{z{|}}~€ƒ…‡‹–‘“——–—˜”‰ule\TNIEB<;966:620233200/..ÿÿÿÿÿÿÿÿÿÿÿÿÿÿøù¸—gyujc]XXXYZZZ\ajt{ƒ†‰Œ“•—˜—–””•—˜”“’ŒŒŠŠŠŠˆ‰‹Œˆ‡†††††……„ƒ…ƒ…‚‚‚ƒƒƒƒ‚~~~~~~}{zyyy|{zxwyzxz{{yyy|~|||}}€~~}|{z{||~~ƒ…‡ŠŒ””–™™˜™œ™•“†|sk`VLGB>=<:7696211122100//ÿÿÿÿÿÿÿÿÿÿÿÿÿÿşíµ›yxogb_[XXYZZY[`ju}„†ŠŒ“—™š™——•””““’‘ŒŠŠ‰‹ŒŒŒ‹ŠŠŠ‰‰Š‹‡‡††ˆ‡†……„„…„„‚‚€€~~}~~}|zxzz{zyyxzzzz{}{z{|~}}}~}~€~~}}|{z{}~~‚…‡‡‰Š•˜•–—“““‘Œ…|si_UKD>9;:8666775101000/./ÿÿÿÿÿÿÿÿÿÿÿÿÿÿÿò¿¯okda`]YXYZZZ[bkw…†Š‘”˜››šš˜•“’“’’‘‘‹Š‰ˆ‹ŒŒŒŒŒŠŠˆŠŠŒŠ‡†……………ƒ„…ƒƒ‚‚‚‚€€€}}}}~}|{z{{}||{|{{z{}~}{{}€~~~|{|€~|zz{}~€€‚…†‡ˆŠ•—’•™–’•—’‰‚zpe[RID?;876547:=;6210//../ÿÿÿÿÿÿÿÿÿÿÿÿÿÿıù·šdpjb`_\YXXZZ[^ep{ƒ…‡‹”—™šš™™˜–“’’’’’’Œ‹ŒŒ‹ŒŒŒ‹Šˆ‰ŠŒŠ‡†‡††……„ƒ…ƒ„ƒƒ‚‚‚‚‚‚‚‚‚€€~~~~~~}|{{{}}}}}|{{{}€~}~€€€~~{z|~€}|{z{€€€€ƒ…ˆŠŒ‘“”“”‹“‹‡€ui]TJD@:5544368:95200/....ÿÿÿÿÿÿÿÿÿÿÿÿÿÿõıØœFjjb`]ZXXXYZ^ahs‡†‡‹—˜™™˜—˜••””’’’’’ŒŒŒ‹ŒŠ‰‰Šˆˆ‡‡Šˆ†„…„ƒ…„„ƒ‚„„ƒ„ƒƒƒ‚‚‚€~~~~~~~|z||{{z{{}|z{~€~}~€€€~~}|}}}}}|{z{€€„‡Œ‘‘–•“’“—“Œ‡€viaYME=9542323343211/..-//ÿÿÿÿÿÿÿÿÿÿÿÿÿÿüşş¿Cmjc_\WZXTTV[ajv€††ˆŒ‘–––•––•“’’“•”’‘Œ‹ŠŒ‹ŒŠŠŠ‹Š‰ˆ†…„‡ˆƒ€€‚‚‚ƒ„……‚~~€‚ƒƒ‚~~}|z|~}{{|~~~~€€€~~}|||||}}€„†„…‡‹‘’””’‘‘ˆ€wm`XOE=:84002111111/-,,-.1ÿÿÿÿÿÿÿÿÿÿÿÿÿÿÿ÷ıÔWalhaYYYWTUWY`kxƒ‰†Š’••””••”“’’’”“’‘Œ‹ŒŒŒŠŠŠ‹Š‹‰†„…‡‡„‚€‚‚ƒ„…~€‚‚„…ƒ‚‚‚‚€~~€€€€~||~€€€€€€~|}}~~~||ƒ‚‚…ˆ‹‘’•—”‘‘Œ‡{se^UJA=95221210021.-,,-/2ÿÿÿÿÿÿÿÿÿÿÿÿÿÿÿüşï†Sfg]WZXVTUW]do{‚„ˆŠ’“””•”•””’’’’““’‘‘‘Œ‹ŒŒŒ‹‹‹‹‹Š‰†…†…„„‚‚€‚‚‚‚€€ƒ……„ƒƒ‚‚ƒƒ‚€€~~}~~€€€€€€~}}}}€‚€ƒ‡‰‘“““’“”–Š„}uke^SHB=8411/0////-,,-.03ÿÿÿÿÿÿÿÿÿÿÿÿÿÿûşşú¦QgcZX[XVTUX`it~‚‚ŠŒ“”””””””“‘’’’’’‘ŒŒŒŒŒŒŒŒ‰ˆ‡‡…„……ƒ€‚ƒ‚‚‚€€‚ƒƒƒ‚‚‚€€€~€€~~}~€€€€€€€€€€€~‚‚€‚‚‚„†‹‘“••”Š‡†…smg[OF?;411/////.-,,-/25ÿÿÿÿÿÿÿÿÿÿÿÿÿÿıùş÷Xte^[YVUTUZ_fu€…†ŠŒ“•”“““““’‘‘’’’’’‘‘Œ‹ŒŒŒŒŒŒŠ‡‡‡„ƒ……‚€€‚‚€‚‚€~~‚€€€€ƒ„ƒ~~‚€€€€€€‚‚€~ƒ‚‚‚ƒ‚‚ƒƒ„„‚ƒ…ˆŒ‘“’‹ˆ‡†vrl`RJB;511/////.,,,.035ÿÿÿÿÿÿÿÿÿÿÿÿÿÿÿÿıø®loqUeW\ZVUYbo|„‡Š‘’“’““““““’’’’“’’“”•”“‘‘ŒŒŒŒŠ‹Š‰‡…ƒƒ‚„…„‚€‚€ƒƒ‚‚‚ƒ‚€€€€€‚‚ƒƒ‚ƒ‚‚ƒ€€€~~€‚}€ƒ……„…„„…††Š‹’’””–”ŒŠŒŒˆ†‚vojaSIE<875200/.//////11ÿÿÿÿÿÿÿÿÿÿÿÿÿÿışııÌ‰’bcV\[[VU[eo}…‡‰‘‘’’””””””“’“““’’“””“’‘ŒŒŒŒ‹‹‡†„„ƒ‚ƒ„„‚„€€€‚‚‚‚‚€€€€€€€€€€€€‚‚‚‚‚€~~€€€€€€€~~€‚ƒ„……„……„†ˆŠ‹’”••”’ŒŠŠ‰†„wlcYQF<65420/-/.+,,,,10ÿÿÿÿÿÿÿÿÿÿÿÿÿÿÿşùşà¥…\fSZYYVW]gr„‡‰‘‘’’””””””••””“““““”“’‘ŒŒŠ‹ŒŒŒŠ‹…„ƒƒ‚‚„„‚‡…‚}~€€€‚€€€‚‚‚‚€~~~€€€€€€ƒ‚ƒƒƒ‚€€~}|‚„…†…„……††ˆ‹Œ‘‘‘’“”–—•“‘‘Šˆˆ…†‰„xoe]J?8621/.-..,+,,,/0ÿÿÿÿÿÿÿÿÿÿÿÿÿÿışüÿıÏTc]bUWWVW]iv€…‡Š‘‘’’•••••–—–•”””“““’‘ŒŒŒŒŒŒŒŒŠ‰Š‹Œ‹Œ‹‹‰„„ƒƒƒƒƒƒ‚€~…ƒ~€€€€€€~~€€€€€€€€€€‚€€€€€‚ƒ‚‚‚‚€€~‚ƒ…†„ƒ……†‡‰Š‘’’“”•–˜™—•“’Œ‰…„……‚|ui^RE<720/,,-....//./ÿÿÿÿÿÿÿÿÿÿÿÿÿÿÿşıûùàkXbaVVWVX_kwƒ‡ˆ‰‘‘’’•––––—š—–•”•””’’‘ŒŒŒŒ‹ŠŠ‰‰‰Š‹‹ŒŒŠ‡……………„ƒƒ~€~€€ƒ‚€~~~~~~}~~€€€€€€€€€€€‚ƒƒ€‚„ƒƒ„…†ˆˆŠŒ’”•—˜™š™—•“’‹„‚ƒ‚~zvmeXLA940.,,--.--./-/ÿÿÿÿÿÿÿÿÿÿÿÿÿÿûşşşşôœCkYXVUVV_oy‚‡‰Š‘’’’•—˜––—˜˜––”””“’’ŒŒŒ‹‹Š‹Šˆˆ‡ˆ‰‰ŠŠˆ‡……………„€~}||}~€€„„‚‚€€€|}}}}}|{{{|~~~~~}|||}~~~}~~€‚„„…€‚‚‚ƒ„…‡‡ˆŠŒ•–—˜šš˜—–”Š„‚ƒ„ƒ{xuo_PC:41/-,--,++,--/ÿÿÿÿÿÿÿÿÿÿÿÿÿÿşşşşÿş¿TiZ]WUVT_t}€†‰Œ“••–š›˜˜˜—˜˜—•“’“’’‹ŒŒ‹ŠŠŠ‡‡†…„…………………ƒ‚‚~~}||~~€€~~~}{{|}}|yxxz{}|{}}|z|{|||}~}}~€€~€€~}~€‚‚‡‰‘“—˜˜”•—˜™š•Œ‹‰‡‡‡„‡zyrfUF;531.,,,+*+,-,/ÿÿÿÿÿÿÿÿÿÿÿÿÿÿşşşşÿÿáp_^WXVVUav~†‰Œ‹“––•šœ™™œ˜–”’“’‘‹ŠŠ‹‹ˆ‡‡…„„„ƒƒƒƒƒ‚ƒ…‚€€~~~‚|}~~~~~}|||zz{|{{yxxxzzyy{|zyz{||{||}}|~€€~~~}}~~~‚€€†‘–™™––—–˜™–ŒŠˆ‡‡ˆŠƒ~}vm\L?631.,,+*)*,-+0ÿÿÿÿÿÿÿÿÿÿÿÿÿÿşşşşÿÿúVd[[VWVey‚‡Š‹Š’—˜•˜›™˜œœ—•“’ŒŠ‰ˆˆ‰ˆ‡†‡ˆ„‚‚€€€€~~}~€€€~€~€~}|{{zyyyyyxywvvvwxwwwzyyyzz|yz{{{|}~}€~|wwxyy{yxwwxzz}„‰“•–•˜˜”•˜–‘Œ‰‡‡†ˆ‚}~vqaPA641.,,--+**+-3ÿÿÿÿÿÿÿÿÿÿÿÿÿÿşşşşÿüıØGSb\XWXi|ƒ‡Š‹Œ“•–‘•˜–˜˜˜˜—•’‹Š‰Šˆ†‡‡……ƒ„‡€~~}}}}}}{{{}€~{|}}~}}}}~~~}{yyxxwyxxwwusrrstuttuwwwxxyyxyzz{yz{|{{|||yyxxyyzyxvuuurrwˆ“••“’’•—’‘‹‰‰„†€|}wsdUF:21.,,-0.-./14ÿÿÿÿÿÿÿÿÿÿÿÿÿÿşşşÿÿşüßE][^YXXk}‚„‡ŠŒ‘“”““–”••’’’’‘ŒŠ‡†‡ˆ‡††‡ˆ†ƒ‚‚~~}}||{{{{{}|{{}zyyyz|||zzzz{|{ywyyxwwyyxwvrponpptsstuvvwxxyxxyzzuvwyxwwwvsrnnoppnmlijjlikqy“’’•–“’Œ‰ˆ„‡|~xvi[L@31.,,,,.14845ÿÿÿÿÿÿÿÿÿÿÿÿÿÿÿşşşÿşûíxL`[WUVk}€‚‡ŠŒ“‘‘’”’‰ˆ…„………„ƒ…ˆ‚‚|}|{wvtrqruwuvxyxwvwwxx|~~}zwwz|}|wwwwwvtsspnkllkkrmottuttsvwwuuvwwqmrtrmkijla`acdbba_[X\`adjkyŠ‘“–’’‘Œ‹Œˆ„~}vmaRA60,.---/1474;ÿÿÿÿÿÿÿÿÿÿÿÿÿÿÿşÿşÿüıíqW_]ZXYo„†ŠŒ’“”‘Šƒƒ„†‰ˆ†‚€‚‚€~~€}~~}{yxvtspnnoprqtuwvvxwxyz}{xvuvxz{yxvvvvvrqomkkkiihhkgjoorqpooprqqqssmikljgc^XTYVSRRTURPOPSVWY`mqz‚‡ŠŒ‘“‹Šˆ…‚~~ztiVB81-/.-..0464<ÿÿÿÿÿÿÿÿÿÿÿÿÿÿÿÿÿÿÿÿüë„Id`\\]r‚„‡‰Š‘‘‹~yxz}|}yvrrwusuxwwyzyyyz{zzrqpomjhjkkkloqrstvwyyz{wutwyyyxuuuttttrpmjghgedeedcejikjgedfnmmmnmgcba_`_[SOSPMKJJIFEGIMPOQV^`ejpu}„ˆ‹‘Œ‰ˆ†‚€~|wmYC93./.--./3539ÿÿÿÿÿÿÿÿÿÿÿÿÿÿşÿÿÿÿÿòú¼=ca]]_uƒƒ…‡‰Š‰ƒxwwxtokjihhkfcfmnnrutsuuutrjiihgedhihegjnpprttvvwvutvywwwvtrtssrrsplgedc^[]_a_ab_^]ZXYY][[\^_[XWSNNOPOOHFFEGFFEFIJLNMMQSW^``^bny‚‹Œ‹‡ˆ‡ƒ{vm\H<500/.-./1338ÿÿÿÿÿÿÿÿÿÿÿÿÿÿşşÿÿÿÿ÷ø¾@f_\\_u„„†‡ˆŠˆ„~yxwpkhd_[]][XYZ\^``biljhmmkgeddcccadgifbcfilnoqqqrrrsttsstuusstsrqppmhc__]VSVY[YZVPPPOOPPNKKKMMKJJFAA@?@BB@@ABCFIKLMKLKKNRTVWWY`eegix…‰ˆ‰‡ƒ€€|wobR>701/.--.118;ÿÿÿÿÿÿÿÿÿÿÿÿÿÿşşşÿşşÿñºVfa_\cx††‡††…€{vsrhc`^[XUWYVRPRTTTVZ]`_^`^][[\\]]_`cddbbcdfhjkmmnoprrqonopqrqqssqpnigc`]\[VQRUVSPLIHHHIHIDBBAB@AB@<987788>>>@ABFJLLJHIIHJIJLOPRTX[`gjr}…ˆ‰ˆ…‚€~{tjU?91--.,-.//;=ÿÿÿÿÿÿÿÿÿÿÿÿÿşşşşÿşşøâÖkYeb]dx…ˆ‡„€}rojfec_^^ZUQQTRMMMMMMLMPRRRTRRSSSSTVWW[][Z]``bdghikkmnpooonppppqprqpomhfb_]YURLLPRNJFFFEEDDB=><<<;==;8777778<=?@AABGGGFCCCBBABEGIKPSV_it{‚ˆ‹‹Š‡…‚€~woWA;2,-/.0/008=ÿÿÿÿÿÿÿÿÿÿÿÿÿÿşşşÿşşöÙípSa_^g}‡†…€xsiea^]]\\\YTOLMMIIHHHGEFIIIHIHGGHIJKLNNORRRTZZ\_bdfgjklkllnpqqqqqqooomlfda]ZURMGGJKIEBA@@?>><9988767753446788:<=>>=>@AAADDB@?BBDDEFJOT^gx~…‰Š‹Šˆ‡…ƒ~ys]D<3////01233=ÿÿÿÿÿÿÿÿÿÿÿÿÿÿşşşşşııëíe[_^]g‡…„}rkc`\ZYYWXZXUPMLKHFEDCCBBDDDCDBABDEFFGGGHLLKQSTVZ]`bdfhjhhkmoqpqponllljhec^[WTRMFEHFC@>>==;9887655443222133567789::;;;;<?CAA@?CCDEDEIQW_fsx†ˆŠ‰ˆˆ‡†€{xeJ>520--.0223>ÿÿÿÿÿÿÿÿÿÿÿÿÿşşışÿşışøßa\fc_ez„…„~ri]ZVTTUTUYWTSMKJGEDCAA>=>?>=@>>>?AABBAA@EFHMQQSX\]_acegggijkoomlkjjjjhfdb]YURQMFDFDA?==<;9764655446422643689:;;;::>><<=?=>??@@BDFHJOW]bisy€…†††‡†††€}|lN?552-,.0335@ÿÿÿÿÿÿÿÿÿÿÿÿÿÿşşÿşşşú÷×iRdb_g}…„„~si\ZVVUSRSWVTQKHGEFECAA?>@@?=<;;<<=====;;?ADIPQSW[\\_bcfgiiiimmjihhiihfdda\XSQPJCAEB@>==<<9754665449655899:<????>>>A?==?A?ADEGFHJNPQV\afirx|~}‚„……†…~€pP@663//03579AÿÿÿÿÿÿÿÿÿÿÿÿÿÿşıışÿüıóÑnZ`c]l„‡†tlj`ZWUQPPPPQOJJHHGBBBBB@===>==<<;;:::::;<>?BCOQTX[[^ba`cffghhfgiigfiiiiia`[VPLKIFBA?><;;::9887566777788;<<<>CEDEECBDEFECCIJJKLJLNSVY[_dhjquz~‚ƒƒ„……€w\G535214665:@ÿÿÿÿÿÿÿÿÿÿÿÿÿÿşışşÿışôáƒWcd_nƒƒƒ~vnlle^YTTQOOQOGHIIKHGECA@A@?>>>>=<<::9999;=>?AJLPUZZ]a``bcccdeefhhfedeeeeb`^UOKIHFED@?>=<;;:;:9788999::<>@CDGIKHHIGFJLMLJJOQSRPNOSX[\]bhnpux}‚‚€yaK8462/23425?ÿÿÿÿÿÿÿÿÿÿÿÿÿÿııışÿşş÷äVdc`p‚„‚€{wtohc`[TUWTQNLLLJIJJIHGGFEB@?@???><;::9::;=?@DGLRWWZ^^^b_`aabcdddddbbbbbc`\UPKIGEFGBA?>====<;::::<<>=>ADEFIKMLLMNMLMNPONMOTVUQVVWYZ\afkqtuw|~€‚„ƒziT>752.02238Bÿÿÿÿÿÿÿÿÿÿÿÿÿÿşşışÿÿşşçr[baat„†…‚‚~xpjghdYZ]YSPTQPLLKLLMNMJIFC@BBA@?@?>=<<>>??@DGJQSTW[\]`__`aabbaabbaaaa``^\VRNKGEFHCB@>>???>=<===>>BBCFKJKNQPMQRSSRONPQPPOTUTSZZZZZ]chmqttvz~}€ƒ‚„„…†„…‚{s[B:520/046?Hÿÿÿÿÿÿÿÿÿÿÿÿÿÿşşşşÿÿ÷şör\`_bx‡‡…‚}vvpnmkd`[XXWTTSSSPPONNNNKGDBCCBBADCB@?>@ABBBGHKNQRVZ[\___`aab`__`cabbbb\\[XVRNHDEGDBB@?@@@?>?>>?@ADDFJMNQVXVTSUWWVRQSTTSTSTVVTUX\^cgiloqwz}‚‚ƒ„…‡……ƒ|y`E;5221258@Jÿÿÿÿÿÿÿÿÿÿÿÿÿÿÿÿÿşÿüúşúƒc_ehw‰ˆ„‚€}zxtpmiec`ZWVUUWXZVTRNLQSQMJIHGFFECEFDDCCDDDDEEFJLPTVY[\^`aa`_^__acccb`__^[WUROJGEEFDCCB@ABDDBA?@CFKMPRQRTWYXVWWWVVWWWWWWYUTVY][]]`bfjnpnqsw|€‚‚€„‡…‚€~xdK=7651/5>BQÿÿÿÿÿÿÿÿÿÿÿÿÿÿÿÿÿşşıııõ—ccdfz‹ˆ„‚€~|yspnifd`^\[ZYXWXZYXVTWYUSPOMKJHFEFGGFEFFFFFHGIKNQUVY[]]^``_``_`bbcdb`^^\ZVTQOKHGFEFDDCBBDEDCFEEHLNQUXZYXZZYWYXVUTTTUVXXTSUXYZYZ[]adhloorsvy|~€€~ƒ†…‚€}hOA:752/6AGTÿÿÿÿÿÿÿÿÿÿÿÿÿÿÿÿÿÿşıúåÀpfaf€ˆ…ƒ~|zuqoieddcba_][Z[YZZZ[ZZXVTSURPLJJKKKKJHGGFFKKKNORUVX[]]^ababaaacdcdca_][XUSQPMJIHHGFFEDEGGGEFGHKMRSUXZZXXXVUVVTQOQRRQRROQRRRYWXZ]`ddhlosstwy{}~}€…‡†„ƒ‚€jPB<85219DPVÿÿÿÿÿÿÿÿÿÿÿÿÿÿşÿÿşşûß¬±µqcckƒˆ†ƒ~zuroiffeeeb`^]_`\\]^_]\[[[ZYVSPNNPQQPMIHGFEKKLNQRUVY[]^acddccbcdeeedb_^\ZVSSRNKJJJJIHGGHJJJIMMNMMNKJIKLJHHHJLKJHHAACFIIHKOSTVVVY]_aadiloortwz|‚ˆ‡††„„€kQA:7544=HTVÿÿÿÿÿÿÿÿÿÿÿÿÿÿışÿşıä¦¤®µ„\hr„ˆ‡…€{urpjhgfdba^[YZZZZYYYZZZZZ[XVTSRRTUTSQOOMKJIIJMORUUYZ]\^aaacdceefdedb``^[XUUTQNMLKKJJIIJKMLKOOMJFC?;;>BDCDHKOOQQQPMHB=:;;?DHOOQTXZ]adhhlmptx{}…‹ˆ‡‡‡†„nSD<8656?LSVÿÿÿÿÿÿÿÿÿÿÿÿÿÿşşşııÓr†š¨|Zkv„‰ˆ„zuqnjhfda_]ZVRQQTSRPPPRPNPQRSTSSTUWUTTSSQPNIIKKNRUVY[\Y\^`aeedegfffec`b`]ZXWVRONNLMLKJKKJKLLHFB=8844698568<?CEGHJLNPQRQJGDCEHIKNRUY_cefhjnsy|€„„ˆŒˆˆˆˆ†…tXF?9558CNTUÿÿÿÿÿÿÿÿÿÿÿÿÿşüışışÒq—_kt‰‹‰ƒ~~~xtnigfc]XUROPQTVZXUQOMQSOJEHJKLLNQRQSUTUTSQMLLMPSUWYZ[\]`cedghihghhhecca]\ZZXSPPPLNMLJKIGGIIC<6330..00---,/0589:<@CFHKNMNNIDBDFILNOTZ_bfgkry}ƒ†‡‰Œ‹Œ‹‰†y[D>8649FRVRÿÿÿÿÿÿÿÿÿÿÿÿÿşıııışĞs‰‹~gds‹‹‰…€}|xskdaa\UPNNQUZ\[USNJGFB>==B=>?ABBFJMQTSTUTSQPPPSTUWY[\]_aegdfhihhkkjifca]ZZYXTQPOMMLLJHHIHDC;730./-.235856;@4678887:;=>DJNMIFHIIJKLQV[^cejqw{†ˆ‹ŒŒŒ‰†‚z`F<854<HSOMÿÿÿÿÿÿÿÿÿÿÿÿÿşşüışüÎx‰}n_uŒ‹‹‹†‚||wpga\WUSSUWZ[YTOHGDA??78=9<77:=@=ADEHLOQSTTTSRRSTTWZ\^`bcgiegikkkllligec^ZZXXVSQOLKMKIFGJF?;542/-1139;9758?G9:?A>:66985:;@CFKKIJJLOSX\_`djqvy€†ˆ‹ŒŒŒ‰‡‚zeI:845?LROOÿÿÿÿÿÿÿÿÿÿÿÿÿÿşûüıúÌ|Š‹|~o_{‹‰Œ‹‰ƒ}zupg`]TUXXXUOMKHECB@=<;4BP@:B=979<?A?AEIMPSTUTRRRSUX[^`abfhjhkmopopqpmkif`][ZYWVQNKKLJHFGGB;6455204112002.,/267BKHC<9<94756:?CDEDEGKOSWZ_entx|†ˆŠŒŒŒŠˆ„zkM8855CORRSÿÿÿÿÿÿÿÿÿÿÿÿÿÿÿûüıúÌ~†€m`‰†Œ‹Š„}xtogb_Z[]XPLLHGGHIGD><=;RcKAC>8799=?>?CEINPRTSQPQSUX\_`cdhjlknqsttwwvtrlhd`^ZXYVRMKKLJIHGD>94578741/.1//0000147HVSRKFJE<::;::BCCEGHJMQUW`gpvy~ƒ‡‡ˆ‹ŒŒ‹ˆ…{nO7845ERRTUÿÿÿÿÿÿÿÿÿÿÿÿÿşúüúüûË{Š‡ˆtV}‹“‹Œˆ€{qlhd[XSRNICEIFITW[H?CFD<8:=>=858=AC??@CFMRQOQSTUSTWZ[\_ehhkprsvvvvtvupkigdb`_ZVQNJHIKIIGA<879FK7110//1EQ>0.206GW[_XRWWOECAA@CHJJKNPSWY\hksz~„ˆŠŠŠ‹ŒŠ€tWC=8:FQRVVÿÿÿÿÿÿÿÿÿÿÿÿÿşúşüü÷Ê€…‡…s[’ŠƒvmfaZXSONLJHHMU]bbNACC?97:<DB<:<@GKE@??DJNOPQRTUUX[^__cillptvxyyywuwvqkjheba^ZUQOKILNLJE=89;BOQ=20/-./120/00.7J\cebabYMDDBCDEMTVZ]]_behnqw}…ˆŠ‹‹‹ŒŠ„ƒuXB:68CLPSTÿÿÿÿÿÿÿÿÿÿÿÿÿÿüşıü÷Æ{‘ˆ‡ˆsc‚Œˆ„wpkjfd]XZ]\XQ[jmlhSA?>977:=EC>;>FPVPF@?DGILOQRTTUW[``aeknotwxz{{zxvxwsnmigeb^[VSQNLNQPJC;8<BMXYH70.,,-/223213>N[_b_\YPHKLLNPV[__aejloqtuv{‡‰Œ‹ŒŠ‡…vZB758@HKPRÿÿÿÿÿÿÿÿÿÿÿÿÿşüşüüúÇvŠˆ…vm…‘Š’‘‘‹ƒ}ytneccjoodX^lpok]C:<988:;??;:?MW^YOGFKIGLNQRTTSUY^`aeloruyz{{zzzxyxupnkigda^ZWUTQRTQGB=;AGS\]TA21...01/,-03DS\_`[SONOVWZ^bhmppqtuwy{|}~ƒ‡‹‹Šˆ…w_D65:>DJMPÿÿÿÿÿÿÿÿÿÿÿÿÿşıüúüıÒ‰‰ƒzw‰‘„’‘““‘†…ƒ|qvutwvum_\fnrofJ;<;;;:::<<=DR\b^WSPUMHLOPRTSUW\_cdiptvz}~}|{yzyurpmjhfcb^\[[WUSPFBABEITZ\^M44100122236<N[`b^ZTQU[]_cimlrvw{~€‚„„ˆˆˆˆˆ‰Œ‹Š†‚xbG88=>CKINÿÿÿÿÿÿÿÿÿÿÿÿÿÿşşûııçy’Œ†…|vŠˆ‘’•–•“ˆ‹ˆƒ}xsoidegssnXC?==><:<?>=HY`ca][XWUOHKPSTUVY]bdglqvy|~€€€€{{{zwrolljihda__a^\WQFEFGGHPVZ]V=8203202568MZ`^]YVUUX\_cjquz{}}€ƒ†‰ŠŒŒŠŠƒ€lC9:?AFLILÿÿÿÿÿÿÿÿÿÿÿÿÿÿşşÿşıú“ˆ‰~w‹“”–———–•”’‘‹ƒyqjgdb`koqbL@>;>>;=>:?Qabb`^]XTUREMTVTUWZ\`eimrw{}€€€€€~~|zyunkkkkjd``aeba\QIJJHCCJOUUSME:421128=@OXZWWXWY[_bgjqwz|}|}~€„‡ŠŒ‘“”‘’’‘‹‰†q@:<ADHMLLÿÿÿÿÿÿÿÿÿÿÿÿÿÿşşÿıışºqŒŒˆ†€‘‘”•—™™™›š˜•“ˆ~xtmgee`glgWH@::;;::;G\ifb_^]XUVSJOUWUVXY]cgjpv|€‚‚€€}zuokllkjebbbfff_RIIMNLKLORRQQMHC?=>@DHLRTSRVXZ^dkoqtwz}~}}~€€„ˆ‹’“”–—”““’‹‰‚€qF?AEGINOOÿÿÿÿÿÿÿÿÿÿÿÿÿÿşşÿıışÜ~‡’‹Š‘“–—™›››¡ ŸŸ™•Šˆ‡xnihaacd`VLC?><<@GR]d`\WXWUTSQNJRVVZZZ_ejmsz‚…„„„ƒ‚€€€}zvpllmlkeabcfhgbWPRWYYYWXYXXPRSRPOONNOOPQOPV\_eltywxy{|€‚ƒ…ˆŒ••—™™–––”’‘‘ŒŠ‰ƒ…uMEGJJKOQPÿÿÿÿÿÿÿÿÿÿÿÿÿÿşşÿıışï¦l‰Œ“—™šœ¡Ÿœ›–‹ŒŠƒ|tnkga_`^[WPNKGHLTYYZXWUSRSRPPQNV[\]\[bglpv‡‰†……ƒƒ~~~{zwqlnmmkfcbchffe``aba^\_^\[[XXVTRPPNMMMNQSV\dfinuyyz{}~€€‚ƒ„‡ŠŒ•––˜™™—˜—”“’‹Š‰…ˆ~uOHLNLLPOOÿÿÿÿÿÿÿÿÿÿÿÿÿÿşÿÿışÿ÷ÖoŠˆ’“—šŸ››š˜’ˆ‡†„{xieb_YZ[YZWRUUX[X\^`_\Z[[XY\W]a`a^]bjnqxŠ‹ˆˆ†„„|||zxxqnonmlgbcdgdegfbcefda_]YWYXWUUVURRRSUU[`cillmptw{|~‚ƒ„…‡Œ”•–˜™™˜™™•““‹ˆ‹…‡zrNFOQNMPMNÿÿÿÿÿÿÿÿÿÿÿÿÿÿÿÿÿşÿşøí~|Œ’‘‘‘“—™œ £¤££¢ Ÿ›—’‹†…„|zrnh`ZWWYZZXWWYZZ]`dedb`_ab__^]^`adhjou}„‹Œ‡‡††…ƒ~{yxtsqommnkigecfhhfdeddba_^][ZYZZ[[[Z\_`aabdegjlorvy{}ƒ„„†††ˆŠŒ’“—š›š˜—–•’‘Œ‰ƒ†ysIKXTLRTSPÿÿÿÿÿÿÿÿÿÿÿÿÿÿÿÿÿÿÿşúó®m‹‘‘‘“•—™Ÿ£¥¤£¢ Ÿœš–“Š‡†‚|{xrkg`__][Y]]^^_bdghhffefhecbaabchlnsyƒ‰‹ˆ‡†…„~{yxwurnjkmkjhhdghhgeggedcbb`_^]]]]]^]``cdefhjklnptwz{~€ƒ„…†…‡‡ˆŠŒ“•˜›œš™˜••”’‹‡ƒtpMXb\RSQRPÿÿÿÿÿÿÿÿÿÿÿÿÿÿÿÿÿÿÿÿşùåq’‘’”–˜›¢¤¥¤¤¢¡ Ÿœš˜’Š‰‡‚{xtokhgfc`]effffghikllhgijghfefgimrsy€ˆ‘’‹ˆ‡…ƒ‚€|zyutrpnmmmlkjgghiiijjhfeeeddc``bbbbbcfhiklmoqqrtwyz}€ƒ…†‡ˆ‡ˆˆˆŠŒ“•˜œŸ›š˜–••“Œ‹Š„wnJZd_UUSSQÿÿÿÿÿÿÿÿÿÿÿÿÿÿşşÿşıüşøü‡‡’’’”—™›¡¤¦¥¤£¢¡ œš™”‰†ƒ~zxttsrqmkllkkjjijkmnhgijgihiknptxy~…“’‘ŒŠˆ†ƒ‚€}{yrrtssommnnnhhhiklmljgfeffeeddefhgfhjkmnnqssttwz{}€‚ƒ‡ˆŠŠˆˆ‡ˆŠŒ’”—šœ›˜••”’‹ˆˆ…pFXbaYZVVTÿÿÿÿÿÿÿÿÿÿÿÿÿÿşşÿşıúıùı¨…‘’“•˜š›¢¥§¥¥£¢¡œš˜”Œˆ„€~|{vsttqonlllkkiijnnjiklihilpuvx|}‚Š’’’‹‰‡ƒ‚}|yutrqonlmnppjhhimoonlifefeeefgghihjkmpqnpqstvwy{}~ƒ…ˆ‰Š‹‰‰ˆ‰ŠŒ‘”˜š›™–•’‹ˆ…‡ƒ}oI_hf^_ZZVÿÿÿÿÿÿÿÿÿıııııÿÿÿÿÿşûşöÆ‚–‘“–•š £££¦¤¢ŸŸŸœ˜•‹‰‡‚‚}|yxvtrppomlklmllnnmnnnomosvyz}„‡ˆ’”––”Š†„ƒ~{{xwtqqpopoonmllmmnrrrmkhgfgjffghjkmnooosttuwzz||~ƒ„…†‡ˆŠ‰‹‹‹‹‹Œ”–™ššš™•“Œ‡……~}pLfjgdb]VXÿÿÿÿÿÿÿÿÿıııııÿÿÿÿÿÿúÿùÓƒ•’•™—™¡£££¥£¢ ŸŸŸœ™•‘ŒŠ‰…„‚||zyvusrqpnnnmlmopqqqrrstx|~ƒ‡Œ’”——”‘Š‡„„ƒ‚€~|ywurrrqppoommlmmorssoljhffgfffhjlmpqqottvvw{||}}‚ƒ„†‡ˆˆŠŠ‹Š‹Š‹‘“•—˜™™˜–”‰††~qOknkie^XWÿÿÿÿÿÿÿÿÿıııııÿÿÿÿÿÿùışã†˜––˜™› £¤¤¥£¢ Ÿœœœš—•”’‹‹ˆ†„~|zywvtsqponnnnprtuvwx|}€‚„‡‹‘’’“•˜—•‘Š‡……‡…ƒ€~{xuuutssrpppoopoqrutrpmjhecgfghiloqrrptuvvwz{||~‚ƒƒ……‡ˆ‰‰ŠŠŠŠŠŒ‘“”––—–•”’‘‹‡‡€~qSolkje]UQÿÿÿÿÿÿÿÿÿıııııÿÿÿÿÿÿùüıï˜“’˜›œ £¤¥¥£¢ Ÿœœœ™••”’‹ˆˆ…‚€~}|yxvqponmoopqtvyy|}~„„†‰Š‹Œ’““”–™˜–‘‹‰ˆ‡‰‡„~{ywvwwvusrqqrqqqpsvusrrpmhfhggghknpqqpttvvwyz|}~‚ƒ„†ˆˆˆ‰‰Š‰‰ˆŠ‹Œ’“”””“’‘Š†„zoWrhec_YPMÿÿÿÿÿÿÿÿÿıııııÿÿÿÿÿÿûûü÷“••“˜š›Ÿ£¥¦¥£¢ Ÿ››š˜•“’‹Šˆ†ƒ€~{zxvusrqpnppqsvy}‚„ˆˆ‹‘”•”•—™™–‘Š‰‰‰‰†ƒ~|zwwyyyxvsqtttttrsvwutttsolihgghjlnnomttuvxxz|~€€€‚„„‡‡ˆˆˆ‰ˆˆ‡ˆˆŒ‘’““’‘‹†„|wjWuf_\\YVSÿÿÿÿÿÿÿÿÿıııııÿÿÿÿÿşıúûû©†”——™™› £¥¦¥¤¢¡Ÿ›š™–”’‘ŒŠˆ†…‚}|zyvuutssqrqqsuy}€ƒ…‡‹‹Œ’”–••”—š™–‘ŒŠŠ‰ˆ†ƒ||zyxy{zxvtsstuutstwxwvwxvuqljhgghjllmkstuvwxy{~€€‚ƒ……††ˆˆ‰‰‡††ˆŒ‘’‘Œ‰†‚zvhYtf]\__a^ÿÿÿÿÿÿÿÿÿÿÿÿÿÿÿÿÿÿÿışûûüº˜“–›™œŸ¢¥¤£¤¢ Ÿ›™—–”’Œ‰ˆ„‚€}|{zvtttqsrsrtvwy„ƒ…‡‰ŠŒŒ‘’““’”˜™™–”‘Šˆˆ‡†„}}zwxz{zyxvtsuwvvuvwyzz{zyxwsqmihgijikloprtuwy|~€€‚‚ƒƒ„†‡ˆŠŒ‰…„‰Œ‘‘‹‹ˆƒ„zyfaob\emkgiÿÿÿÿÿÿÿÿÿÿÿÿÿÿÿÿÿÿÿışûûıÄ‚—•–š™›Ÿ¢££¢¡¡š˜—”“‘Œˆ‡ƒ‚€}|zwussspqsrrw|}~‚‡†‡‰ŠŒ‹Œ‘“““””˜™™–“‘Š‰‡‡†…‚~|{z{|zyxwwuvvvvxyzz{}{zzyxusqnjjjhgjmnnpqqvx|~~€‚ƒƒ„…†‡ˆŠˆƒ„‰‹Œ‹Š‡ƒ€zxe^gaepxupnÿÿÿÿÿÿÿÿÿÿÿÿÿÿÿÿÿÿÿşşûúıÑƒ•˜–™™š  ¡ Ÿœœ˜˜•’’Šˆ‡„‚€~|yvtsssqrstux}‚†‰Š‹‹ŒŒŒ’“”““•˜™™–”‘Šˆ‡‡††„‚€~~||zzzyxwvtuvyzz}~~}{{zzxvuqoomjikomnnootx{}~}‚‚ƒƒ……†‡ˆ†‚ƒˆ‰ŠŠ‹Œ‹‹‹Š‹‹‰‰†~{|wcZ^_l}„„ztÿÿÿÿÿÿÿÿÿÿÿÿÿÿÿÿÿÿÿşşûùşİ„”™•˜ššœŸŸŸœ›š–•”’Š‡†ƒ‚€}|yvusssrsvxyzƒƒƒ…‰‰Š‹‹ŒŒ‘’“–•””˜™˜–”‘Š‰‡…‡‡‡…‚ƒ‚~}{{{{zytstvyyz{}~}}}}}{zwutsqonoqoonootwz}||~€‚‚ƒƒƒ„„…†„‚ˆ‰‰‰‰‰‰ˆˆˆˆˆˆ‡„€}z}t_WZasƒŠŒ€{ÿÿÿÿÿÿÿÿÿÿÿÿÿÿÿÿÿÿÿşşûùşä„’š”˜ššœ›š™••“‘Œ‰‡…ƒ‚}|zxwvwwvwy|}„ˆ‡‡ˆˆ‡ˆ‰‰‹Œ‘“”–••”˜™™–”‘‰‰‡…‡ˆˆ‡‚„…ƒ€}|{|||zussvwwyz{|}~~~~}|zxxvuttrqpppppuw{|}}}}€‚„„„„„ƒ…„‚ˆˆˆ‡ˆˆ‡‡‡‡††‡‡ƒ|{}o\T[ixƒ‡Š€şşşııııııııııııııııııııüı©“œœ›šššššš˜—˜˜”““’’Œ‹‰‰„ƒ‚€~{xyyyy{||}……„„ˆŠŒ‹‹‹‹ŒŒ““””••š›•‘Œ‹Š‰‰‰ˆˆƒ…‡…ƒ}z|}|{ywtqrtuvxyz~}zzzyyzywvuvtttutwxy{||}~~ƒƒ…†„€€‚‚‚ƒƒ„‡‡‡‡‡ˆ†„}yylZW`q}‚‰…‡‰şşşııııııııııııııııııııüüÄ”–›—™™™š˜•––”’““’‘’ŒŒ‹‰‰„‚‚€}{yx~~€€‚‡‡†‡‰ŠŠŠ‰ˆ‡‹Œ‘““”••–›œ•‘Œ‹Š‰‰‰‰ˆ†‡ˆ…ƒ€~~}{yyvtrrtuuwyx{|}}{zzzzzzxwxxyvvwxxyzz{||}~~~~‚ƒƒƒ€~€‚‚‚ƒƒ…†………††„‚}xxl^^gu|†„‚‡şşşııııııııııııııııııııüıá˜‘œ•˜—˜˜˜”—˜”‘’‘‘ŒŒŠˆ‡„„‚€~~€€ƒ……‰‰‰‰Š‰…†††‡‡Š‘’““”••—™ Ÿ•‘Œ‹Š‰‰‰‰ˆ‰‹Šˆ„„‚‚{xyvuttstuwxyyz|{{{zz{{zzxxz|wzz{|{{{{||}~~||}~~€‚‚…††…†……ƒ~|wvk]\fprw‚‡ıııııııııııııııııııııııüıî”’”œ•—–––––™˜”Œ‹‰ˆ‡„„ƒ‚€‚‚€€~‚ƒ„††ˆ‰‰‰‡…‚ƒ…ˆ‰‡‰“••””––—›Ÿ¡ œ”‘Œ‹Š‰‰‰‰ˆ‹Œ‹ˆ†…„|zxwvuvssuuwwyz||}{|||||{zzz|wyz}~}}||{{}~~||}}}€}|~€€€ƒ„„ƒ„„„‚~|vvjZW_fgo~{|‚üııııııııııııııııııııııııø¢Š—••••–••–”“‘ŠŠˆˆ††„„‚€ƒ€}‚‚„…‡‡†‰‡„„†††††ˆ‹“””••––— ¢ ”‘Œ‹Š‰‰‰‰ˆ‰ŒŒ‰†„ƒ€~xwvvwtsttvx{}~€||}}|€|zzzvwy|}~~}|{{}~~~}~}}~€|{|€€~}‚ƒ‚‚ƒ„ƒ~{tuj[Zaddn|utxùûûüııııışşşşşıııııııııııû¿†’–––••”““’‘ŒŒ‹‰‰‡‡†……ƒ‚‚€€‚ƒ„„…‡‡‡……‡‡…†‹ˆ…ƒ‚Š‹’““”•—˜Ÿ¢¤ œ•’ŒŒ‹Š‰ˆ‰Š‘Œ‰‰‰…xvuttstuvxxy|~~z{}}|~|{{{xy{}}~~~}||~}~}~~~~}}|||}~~~~~‚‚‚‚‚‚}|vsi_`egir{vqv÷ùúúüûûûûşşşşşııııııııııııâ“Œ˜––•’’‘’’‘“ŒŠˆˆ‡†††‡†………‚ƒ……†…†ˆ‰ˆ…†‡‡…†ˆ†„ƒ‚‰‹‘‘’’•—š¡££š”’‹Š‰Š‹“““Š‚xusrrstvvwxvz|}|y{}}|||}}}}{||}~~||~}|}~}|||}}}}|}}~€€€~~|xqf`bhimy‚yy÷÷ùúûúúúûııııııııııııııııú÷§‡˜•”“’‘’Œ‹Š‰‡ˆ‡‡†ˆˆ‡†…„ƒ„„…†…†ˆ‡‡‡ˆ‰‰‡†…„ƒ„†‡‰‹‘‘’–˜šŸ¡¡—”’‹ŠŠŒ‹”••”’‘’‹„yuqpqrssuvvvy{||z|~~}}}}}}}|}}}}~~}~}}||{{z{{{{{{zz|}}~~~{{upe_ckou~‡‰…{öö÷ùúúúúúıııııııııııııııüüû³‡š“‘’‘‘‘Œ‹‹Š‰ˆˆ‡‡‡‡††„…„………††…‡‡‡†ˆ‰Š‰†„‚‚‚„†„‡‰‘‘“–šŸ¡ ›•”’ŒŒ‹‹‹•™™•Š‚|vpoopqssuutwz{{{}~~~}}}}}}}}}}}~~~~~~~~~~|||{zzzz{{{{zz{|{}~}~~~~~|zzunb^eouy~ƒˆˆôõõ÷øøøøùûûûûûııııııııııııúÈ…–‘‘ŒŒŒŒ‹ŠŠ‹Š‰‰ˆˆˆ‡†……„††††††…††„„††‡…ƒ‚‚‚ƒƒ…‰‘‘“—› ¢¡›•”’ŒŒŒŒŒ—›œ—’‘’Œ„~vmkmnoqrrsruyz{{|~~}}}}}}}|||||}~~~~}}}}~||{{zzzzzxyyzzz{{{{|}{{yxtl`]fpv|‚ˆŠ‡ôõõ÷øøøøøûûûûûıııııııııııûúàƒ‘ŒŒ‹ŠŠŠŠ‹‹ŠŠ‰ˆ‡Š‰Šˆˆ‡‡†††††‡†…ƒ………ƒ„‚€€‚ƒˆŒ‘‘”—›Ÿ¢¤£–”’ŒŒŒŒ–œš•••‡~vlilmnooqqptxzz|}~~~}}}}}}~}|z|}~€~~}}}€}}{yyzzzyyzzzzz{{z{}|zywtk^]fpv‡Šóôõõ÷÷øøùûûışşıııııııııüıø÷îŒ“‘‘Œ‹ŒŠŠ‰ˆ‰‰‰ˆ‡‡ˆˆˆˆˆ‰‰‰‰ˆˆ‡‡‡‡‡‡†‡…„ƒ€~}ƒ„ˆ’•“”› ¡¥ ™—“’‘Œ”—›£©Ÿšœ‘ˆ{pkmmmmorsrtwww~~€€}z{|zy~~}}|||||}}€~€€~|{zxwwyzwvuwz|||{yzzyxwvqp`Zgnsz‚ˆ‹Š‹óôõõ÷÷øøùúûüıııııııııııııüüõ›…‘‘‹‹‹ŠŠ‰ŠŠŠŠ‰Š‰Š‹ŒŠŠŠŠŠˆˆˆ‡‡‡‡‡‡‡‡„ƒ‚€}|||}}~ƒ…‰’”“–  £¦¡—‘“’’‹’”›§¬¤œ›—˜‰slmkjjloqrtvxw}}~~}}~}|~~~~}~~~~~~}~~€~}{zyxyvttuywvxy{{{{yzyxxwvmn_]kppsy€…ˆŒóôõõ÷÷øøùúúûüııııııııııııûûü°‹‹‹Š‰ŠŠŠŠŠŠ‹‹Œ‹‹‹ŠŠˆˆ‡‡‡‡‡‡‡‡‡„ƒ~|{zz{|ƒ†’”“”˜¡£®¨Ÿ—“”“’‹Œ’™¨«¤œ——™‡ymihhhjmoqsvww{|}}}~€~~}}}}}}}}}{{~€{zzyxwyvtssyxyxyzzyyyzyywuuonaalppqu{ƒ†óôõõ÷÷øøùúúúûûıııııııııışùùúÅvŒŠŠŠˆ‰ŠŠ‹Š‹‹‹‹ŒŒŠˆˆˆ‡‡‡‡‡‡‡‡‡ƒ‚|zxwuw{ƒ‡“•“•š¢¨¶¦š–––“’Œ‹‹Œ‘˜¤«­¥›œœ—‚sighhknooruvvy{{|}~€‚€~}~~~~{{~{{{yxxyvttuyzzyxxyyyyzywvutqocelorsvz~‚~óôõõ÷÷øøùúúúúûııııııııııüúûüÜv‹Š‰‰ˆˆŠ‹Œ‹‹‹‰‰ŠŒŒŒŠˆˆˆ‡‡‡‡‡‡‡‡‡„‚{xvtstz€ƒ‰‘••“–œ¢«±¡—•’–•“‹Š‹ŒŠ”¦±ªœ›——’ˆ{pjijloportvvzyz{||~€}~~}~~}~}}}}{{yyxxwxyyz{zxwwxyz{xwvtsnkcirpptwxwzoóôôôö÷øùúúúûûüıııııııııııüıúìŠ”†ŠŠ‰Š‹ŒŒŒŒ‹Š‡‰‹ŒŒŒ‹‰ˆˆˆˆ‡††‡…„‚}zxvussy„‰Š“•˜™šª³µ¦˜‘’‘‹…ˆˆ‰‹Œ•œ©µ¦™™“•‡|qhknpvortuuwvwxy{{}~}~|}~~~~~~~}~~~€~}{zxvyywuyyxwvvvwwxxyvrqrkiahpmmnopqiXóóôóö÷øúúúúûûııııııııııüıûıùò–‹‹ˆ‹‰‰Š‹‹ŒŒ‹‹Š‹Œ‹ˆˆ‰Š‹‰‰ˆ†„ƒ€}{yvuutt|‡‹‘•—••˜¥ª—‘“”“Œ‰‡ˆ‰‡†ˆ‘”•©¥›™”‹…{khlmqpsttsutuvyyz|~~}~~~~~~~~~~}~~~}~~}|zxxyxvtvuuttuuvwxxwvsrqlj`fmjiihijUJòóóôö÷øùúúúûûııııııııııııúşúû±‡Š‰‹‹‰ŠŠ‰Š‹‹‹ŒŒ‹ˆˆˆ‰‰ˆˆˆ…„‚~|{xvttvxz‚‹“—™™˜š–‘‹‹’“‘ˆƒ‚‚††ˆŒŒŒ˜ ¢¡œœ›ššˆrelppqssqqsrstvxy}~~€~}|}~~~~~~~~~}}}|{zxwwwvuuuttutuvvvwvvurooi]agcbca[VB@ñòòóö÷øúúúúûûııııııııııııûıııÚ‰†’‹Œ‹‰ˆ‰ˆ‰‹ŒŒ‹‰Š‹‹ŠŒ‹ˆˆ†††……„„‚~}zzxvtty|€‡“˜œš™›šˆŒŒŒ‹Šˆ†…„ƒƒƒ„ˆ‡ˆ‹ŒŒ‹Š˜ŸŸœ¡¢¤˜…oimloqsrqrrstwxy}~~~}|}~~~~~~~}|||{{{zxvvvwwwwwwutuvvvtuurnphWX^YX[UI=<@ğññóööøùúúúûûıııııııııııııøûûô”‚Œ‹‰‰ˆ‡ˆŒŒ‹Š‹Œ‹ŠŒ‹ˆˆ‡‡†…„„‚|{{zzxvvz€…Œ””š™”“”’‹‰‡‚€}||~~~€~z|~€„†…„†‰’—šœš’xffflorttutuvxyz|~~}}~~~~~~~~~~}{zzz{{{yvuvxuvvvxuttuvvutqponcPOUQNIB939@ñòóôööøùúúúûûııııııııııııÿ÷ü÷ø¦ŒŒŒŒŠ‰‰ˆ‡‡ŠŒŒŒŒŒ‹‰ˆˆˆˆ‡††ƒ~|{{zyxww{‡–•™›™•“‡…„|yxxxyzyyy{{yxzx{}}|~„„…ˆ‰˜›—zefhimquuwvwxzzz|~~}|}~~~~~~~}~~{zyyzzzxvuvwrstuvtstuuwvsonqnaMJLIE:3255=ğòóõõ÷øùúúúûûııııııııııııÿııûùÉv“ˆ‹‰‹ŠŠŠˆ‡‡‰‹ŒŒ‹‹ŠŒŒŒŠ‡………………†ƒ€|}|zxwwz}‚‡•”“‘ŠŠˆ†|{wtuussttttsrssuuuvvvwxz|€„ˆ‡‹“—‘Œ}icgilpuxwxyyzz{{|}}|}~~|~~~~€~~~|{{zxwwvuutqstvwsqrsvwvsooqq`PKE@;4/148=ğòòôõö÷ùùúúûûııııııııııııüüüüüæ…†‹‹Š‰‰ˆˆˆ‰‰‹ŠŠŠŠ‰‰‰‰‰ˆ††‡‡‡††ƒƒ}{zxyz{|~ƒˆŒ‹†ƒ~|xtrolmoljkkkjjllmmmmnnooprtx}ˆ†‰’‹}lehjmrvzyxyyz{z{{}}~€~~~zz|}~~~~~}{{ywwwvuturstuvrqpqsutqppqm_SME>:3.028<ğññóóõöøøúúûûııııııııııııûûışş÷”z•ŠŠŠˆˆˆˆˆˆˆŠˆˆˆˆˆˆ†‡ˆ††………„ƒƒ€‚~{zyy{~~~€ˆ‹ˆ†……€}wspmighegigeeeeeddedddfgghijllpsv|‚…ŠŠˆ}mgijnrwzxyyzz{||}}}~€€}xxz||{|||}{{ywwwvvuutssturqpprssoqroi^RMD=91./28=ğññòóôö÷øúúûûııııııııııııüıışşû­z—‰Š‰ˆˆ‡†††‡ˆŠ‰ˆ‰ˆŠŠ†‡ˆˆ†…„ƒ€€€€~|}|||}~|}„†||zvsnmjfdba]aca`_______^]]_````babeiklsxx|‚ƒ|mfghlpuxzy{{{}~~|||}~€~~}zy{|{{{{{}zzyxwvvvtustuttsrqqstqosvoh[LHB<60,-07>ğğğòóôö÷øúúûûıııııııııııışşşşşşÈ‘‰‹‰ˆ‡‡†ƒ„†‰‹‹‰Š‹‹Œˆ‰ŠŠ‰ˆ‡…„‚~||}}||}zy‚wrqokhc`^\YXYVZ\[[[[[[\]\\ZZXXXYYXWWZ]_bikmt|xkeefjnsuzz{{{~~}{{}~}{}}}}|{zzyyy|zzyxxwvvttuuuttuusttupmtwngWGD@<6/+-/8=ğïòóóóõö÷øûüşııııııııııııüııııüà†‡‘‰‹‰†…†„„†‰ŠŠˆ‰‰‰‰‰‰ˆˆ‰‰ˆ‡„‚~|~~}€~{z{xsmg]XVWSMKQVTWXVTTTUVVWWUVVWWUROLLMJKPQV[aimospecgfiostz{{}~|}|zx|{|z{}}|z{|y}|yxwwxzywutstusrrsqqttvwvtsqnnSHE>;3,+.05;ïîñóóôõö÷ùûüşııııııııııııüııııüï¥x’ˆ‹‰‡…††‡‡‡ˆˆˆ‰‰‰ˆ††…†………‚~}~}€‚€{vtqke`ZSOJE@@CGJMOQQRRRSSSQQQQRSPJD@<989;>JOW_ejonedhhimrvyz|}~}}}|zxvx{~€~{{{{y{|{xwxxxyvtrrsttsqprrrstvvvtrpohQHF@=3,+./4;ïîñóóôõö÷÷ûüşııııııııııııüüşüıüûÅgŒŠ‹Š‡‡‡‰‰ˆ‡††ˆˆˆˆˆ‡††……ƒ€~|}}‚‚ƒƒzsnib[XTLE>9658;=AFJMNNNNNONNNLLHFA:6433446?DMV[bggefhjhkrxyzz{~}}||zxuw{}‚|zy{{y{{zywwxwwtqqrsusrqprrrstuuttrpnbNGGB=3++./5:îíğóóôõö÷÷ûüşııııııııııııüışııûı×v‚ŒŠˆˆˆŠ‰‡†††‡‡‡‡‡Šˆ‡††…„ƒ‚€ƒƒ„„ƒztog]WTNGB<:888::<?DGIIIIHHLMMJH>=:86667887;?HPU[^adgjkjmrwxyz|}}}||zxzz|{|}|zyzzyyzyyxwwvuutsrstsqpoqrqsssttrqon_KFGA<2**-/5:îìğòôôõö÷÷ûüşııııııııııııüııııøşá¡|”ŠŠ‡ˆˆˆ‡‡‡‡†‡‡‡†‡‡…„ƒƒ„„‚‚‚~ƒ††…„‚zxui]YSLEC?>>>>>@>=?BFGGECDGIIDA<;;:98:==;8;>DIOUW]cijilpsvxxz{}}}}|zx{{{{{|{zxzzyywzyxxwuswzwustrqopprqrrrqtrqom^JHG>:1*(-.5:îîñòóóôö÷øûııüıııııııııııüııııúıï¸Œ‹ŠŠ‰‡‡‡†‡†…††††††„ƒ‚ƒƒ‚€€€ƒƒ„†…ƒ‚}{wnbZSKFA@@?@BCEB@@ABBCCBCEEEB@@?><<<?@@?=>?BGLQU[ciiimqtuxyzz{||{zyy{{z{}{zyyyywxxxxwwuutvyxvttrqpooppqrrsutnnjYMGE>82+),.5:ïğòòòóôööùüııüııııııııııııııüüûşúÄ„ŒŠ‹‰ˆˆˆ‡‡………†‡ˆ‡†††………†…‚€€€€‚‚ƒ……„„{wqiWOIGDBAACEGJHGFFDEFEBBFFGFDFB?ADCCDDB@>=>CHQU]cgijlqttyyz{{|{zxyy{yz{}zzyyxwxwyxwuuuuuuuvwvuppqooppqqsstsmohSNHD=82+)*.6;îğòòòóõö÷ùüııûııııııııııııııüıûşúß‡‰ˆˆˆ‡ˆˆ‡………‡ˆ‰‡†„…ƒƒƒƒƒ€€‚ƒƒ„„……†…ƒ€|{wqcYOJGCDGLKJRPPPQONMHCBEFHJLMIHKQQNNMIFEDFJOW[_dfgkosuvyyyzz{zyxxxxz||zyyxyxwwvuuuttttutsvuutrqpoooppqqqpqnrhRLFC=82+)*.5:îîñòóõöö÷ùüııûııııııııııııııüıûşùñ†Œ‹ŠŠŠˆ‡‡†……‡ˆŠˆ†„„ƒƒ‚‚‚€€ƒƒ††…‡ˆ‡…„}ytmd[NJORSRPVUSUVUTQKFDEHKPRPTYZ\[ZYVRPRTUX[_aeghimqtxyyyyzyzzxwwwwz||yyyxxxyvsrqsuuuuuttuutssrponpqppponnntfOJEB;82+(*.5;îîğòôõö÷øúüııûııııııııııııııüııüûö©‹‹‹ŠŠˆ‡†……„„†‡†„ƒƒ‚€€€‚ƒ…‡ˆˆˆˆˆ‡…„‚ƒ|xvtpf_][YXWYXXY[YYXURPPRVY[X]bc`^]^]ZX[\^`aegjnoopswyzz{yyxyzwvvxxxyzzyyyxwwurooruutuutstusrsrponoqoonnomptbLHDA<72+(*.4:îïïóóõ÷÷øùüııüıııııııııııııııüıùşøÄ‚‰‰‰ˆˆˆ‡†……ƒ‚„…„‚ƒ‚‚€€€€ƒ†‰Šˆ‰Š‰‡†‡„„ƒ~zywtmgb]\[]]]_`]\^^^][]_bc``acda_`a__bdfhhhjoqtspsxz{{{yyxxxwvuwywvx{yyyyxwvpmnquttutsrttsrtspnloqoonnqmqs_LFCA=72+)*-5:ïğğòóõ÷øùúúûûıÿÿÿÿÿşıüûúúııııııÿú÷ÏŠ‡‰‰ˆ†‰‰‡…†…‡‰„„‚€€ƒ†‡‡ˆˆ‡‡††……ƒƒ‚‚~{{xqlhb_]_^]^_aceffeccdfhjgdeiifecaaegjmppqrsttstwxywvvwzzxwwvuxxwwxvvxxwuqpppqrsssrsssuutsrqomqsrqqppnln[B>;;930//..38ïğñòóõ÷øùúúûûıÿÿÿÿÿÿııûûúııııışûúşÜ”„ˆ‡‹‹‰‡…†…†ˆ…„‚€€‚€€„†‡‡ˆˆ‡†…ƒ~}}|wrpmjhgcb``acefhfeddehiigdeghhgeddceimoqrssuuttttttuwxxxwwvvuwwwvxstvvtrqqpqrsstttsssttusrqonppppnoqqpnWA=:;755444325ïğñòóõ÷øùúúûûıÿÿÿÿÿÿşşıûûııııııüışå³z’‰ˆˆŠ‰†……„…†„ƒ€€€€€ƒ…‡ˆˆ‡‡„„ƒ‚‚€€}|}{tponnllgedeeefgfdcccdgjggddefffffe`cflonnopqrtssrrrtxxxwwvvtuvvvvvrrtssqrppqssssssrrssttqqppoooommmqsqlP?;:9756544303ïğòóóõ÷øùúúûûıÿÿÿÿÿÿÿşşıüıııııışÿúêÒn‰’Š‰‡…„„„ƒ…„ƒ€€€€€€€„‡‡‡ˆ†…ƒƒ‚‚€}{{ysonnnmljhfffeeeca`bacehfeedabdceefcdghjhijkmnqqqqqqrtvuvuuttsuuuuurrtssqsrqrsqqqqqqqrsrsqqqoppppoooqqngI<978643321112ïñóóóõ÷øùúúûûıÿÿÿÿÿÿÿÿşııııııışúışîØ€“ˆ”…ˆ‡…„„ƒ‚…ƒ‚€~€€€€†‡‡ˆ‡†…„~~}}}zwwsqqpommjhfffcdba][^^_cdeeec`_``cddeffffhijkmmmnpqrrrrtvvuuutttsstssttttssrrrsnnnnnoqrrsrpoopqrrqppoqni_D;968644322133ëïòôôõ÷÷øûûüüıÿÿÿÿÿÿÿÿÿÿşşşşşşşúûÿøè›‰……Šˆ„‚‚€€~~~~~~}€‡…„…ˆ†„‚€~~~{zywutvtqqomnmfiihga_]\]^\Z\_ccefda^^bddbeddeefffhllmmnoosqqtsrpqqstpppprrttqqsppqrrpnmlmoopqrrpppooppopqroliVD:977654444411êîòôõõ÷øúûûüüıÿÿÿÿÿÿÿÿÿÿÿÿÿÿÿÿÿııÿøí¾ˆ†ˆ†ƒ‚‚‚€~~~}}}~€ƒ†„ƒ~}~|{xwusturoonmmmikmlib_\\]^^]]^^bdec``befebcbacegfghjkmmmoorppttqooprtooopqnoollnnoopppnllmmmoprrrqqpponnorqnkeO>:986454444411ëíòôõö÷÷ùûûüüıÿÿÿÿÿÿÿÿÿÿÿÿÿÿÿÿÿşışøğÌl‰ƒ…ƒ‚ƒ„…„‚}{}|{{~|}‚ƒ‚~~|zzxwvuqrsollmnmmjmmkjb`^^^_``_]Z_`a`_`acdedcbbcehihhggjkllmomorqonnnqrponopkmmiilmmmnnomlklmlnpqrssrqqponnpppjaG97855443333301ìîòôõö÷÷øûûüüıÿÿÿÿÿÿÿÿÿÿÿÿÿÿÿÿıüışûøå†„‹„ƒ‚ƒ„ƒ~|z}}}}}|{{{|~}‚‚}||{ywwvtttqpokhilnmlikljfaaaa__ab`]Y^^]_a_\]^bdddddffhjiffghjllnklpommmnpqponnomoojjmmnmllmlkjkkmnnpqrrqqpoonmnpqn_D886443212322/0ìîòôõõ÷÷øûûüüıÿÿÿÿÿÿÿÿÿÿÿÿÿÿÿÿıışûûûãx‰‡„€€€€~}|zzyzz{zyz{|}~}yxxwwvtttrrtpnmhcfknmjklmjgbbcb`_aa_^]^^]adc^]]^``__acdfjkifefhjkljknmljkkopqnmmnnppllnppommnliijklmooppopnnpolmmnnk[?776421132222//ìíòóõõ÷÷øûûüüüşşÿÿÿÿÿÿÿÿÿÿÿÿÿÿÿşşúùúôÇz’ƒˆ…‚~~~~~}vwwvvxyyz|}}~~{wuuutttrrqqqrnlkgcfknmkoqpnkcbeda_`^]_aa`adhifb^]]][[\^_dhkhfcdfhjkihkkiiikmnomllllmnjkmqqppolkiijjlmnnonnnmloomlmmlhV:755321111001./êíñóôôõö÷üüüüûıışÿÿÿÿÿÿÿÿÿÿÿÿÿşıüûúúûâ‰…ƒ€~~}|||{{xxxwwxyyzz{}{ywvtrqpqqomkknliffhhjorssx|vwrhhfc_]_`bdeghjjjjkifcc_[UVZ\]_acdbbcegffdccbbgjllkkjkklklllllmnnojjjjjjkklmmnoponmnpponpgN9655533210//...ëíñóôôõö÷ûüüüûıışÿÿÿÿÿÿÿÿÿÿÿÿÿşııûúûøô¢y†„ƒ}|}||{zywvvvvxywvvuvvtrqomlkkllihikkigeeimt{{{z~{ukigc^]_bgkmlnnkfghiklld_XVT[\\]`b_`ba``aba``cehjijjjjjjkkkkkiikkkghhghhiijjklnponnpqpool`G6564432100/....íîòóôôõö÷úûüüııışÿÿÿÿÿÿÿÿÿÿÿÿÿÿşşıûûöüºy†…‚|{{|{yxwvvvvuttsttutsqonlkihhhfddegefhijmrwxusllnornlkhda`cgkoklkfa^^behjjhc^[_]YY^_]`a_]^_`aa_`cefehhhihiiiiihggghhdefghhkjkllkmmomnppppniWA33433210//-----íğòóôôõö÷úûûışıışÿÿÿÿÿÿÿÿÿÿÿÿÿÿÿşşıüûıÑz†‚~|z{{zxvtuuuutqporrrrpnlkjiedcca__acaejnopolieb[VZ[dmnmjfdijlmoeb^ZXVUWX\]dhkifeb\ZYWXY\\\^]\^aa_`cccefefeghhggghggffeefgiijkllmjknonlmnnmlgQ=34332210//.-,,,îñòóóôõö÷ùúûışıışÿÿÿÿÿÿÿÿÿÿÿÿÿÿÿÿşıüú÷ã“v…ƒ~{yz{zwttsssttrqonlllkhgefd`_^^^\[^aeinqqlf^WVWTPUQT]`filllkigf]WQPRRQQRRRU^fjjigc\TQOOQVZ[WTX``]_a``dddeefggfggihggfefgijihhijjikmonjikkiigO;46322100..-,+,,ìîñóóõ÷øúùúúışııııışÿÿÿÿÿÿÿÿÿÿÿÿÿşııôÿë«‹~Šszy{yxwvqsrrrqpnljjifb`a`^ZYZ[ZZ^cgknnje[WUSPOOPOOLJMS[^bfea\XONLJLMNMKKJLOU\_jkg]QJMNNNOQRTTVX\_\Z\`a```cdfghhfdcegdehgfghijjkegiklnkjkjg[C;444420/-------.ìîñóòõ÷øúúúúışııııışÿÿÿÿÿÿÿÿÿÿÿÿÿşııûÿöÓ†„€~{zzyxvurrrqqpnlkhgba^[Y\ZUSTTTW\bfnjbXPNMNMMLNNNMKCCEIMRXXUQNIIHIKLLLKJJJKNNOV\a]TNOKHGHIJJMOQUYWUW]_bb_abdefgedcdgdeggggghhiifgijlnkhiigW@9234210/.-------ëíğòòõ÷øúùúúışııııışÿÿÿÿÿÿÿÿÿÿÿÿÿşııûúôğ¥tˆ|†{}{xvuurqpppomjhfe\][WRTQMKLNRW_cebZQKHHHHKKMLLLLHFDABFIKJIGEDDDGJJJKJIJFFEEDFLTZZXVOIFGCAADGJOSRQTV]ba]^`bccddcddfbegfeefghhiffhjknkefgdO<721211///-------ëíïòòõ÷ùúúúúışııııışÿÿÿÿÿÿÿÿÿÿÿÿÿşııûıñ÷Êrƒ„wyxvutqpoonljheb`ZYWRNKIFEGKT[`_]VPIEGGGIJKLHIIHGIGCBDEEFGFDBBCEGHHHIJJDDDCDDEFLUYXUPMKD@<>BFKPPPRQW\][\]^`abbceddbdffeddeffgffghiliffe`G650/0///0.-----,,êìîòóõ÷ùúúúûışııııışÿÿÿÿÿÿÿÿÿÿÿÿÿşııışùûå“w†y{xxuusqpolljhfb`^WSNJIDCBDGLU[\UOLHECEFHHGIIFGHGEEDBAA?ACFFEGCDEFGIHHIIECDCBBA>@DILOPMIE@879<DHJLPMPUWYZ[]^^``bedabdefedddeffffgggiihhcZ@23////////-----,+êíîòôõ÷øøûûüışüûışşşÿÿÿÿÿÿÿÿÿÿşşşıııùúüüòÅs†€{uwwutsqnmljhfc`]\RLFCAA@?BFLRTSJBAAABDFEEDCCDDEDB@@A@>>@ABCDGEDCDEFFEEEBA@@?=<:;<<@DGHFE?7448>CDEIJLPTXXZ[\^^_bdc``cddbacdccefhjghhgfhbQ9120/---....--,,-+êíîòôõö÷øüüıışúúışÿÿÿÿÿÿÿÿÿÿÿÿşıııııüüüıüô||zxwuttrqmllifca^[YOFA?;?>=BHMNIEA?A@?@BCBAB@>ABCAB>?>=>>=<<?@DB@@BCDBB@@?@>?<;:99887:>@BC>9657:??AEGJNSVXXY\^__bc`_^_cdbaeeaafdiifffead]E33110-,,-,-..,,+.,ëíîñóôö÷øûûüııúûışşÿÿÿÿÿÿÿÿÿÿÿşıııııüüüüüş§t€€{wutsrqmlljeb`\XVLC?=:===@EGC?==??><<===<<<<=???=<<<<<=<<<=?@@?@AA?><<<=<<;:996411124568643335;<<?CEJORUWY[]^^_``__addddddabecffcddddbP:321//,,,,,,,,,+,-,ëìíğñóõ÷øúûûüıûüıışşÿÿÿÿÿÿÿÿÿÿşıııııüüüüûûÜzk…yxwtqqqllljeb]YURIB><9<;99:979:989969:999;<<=>?>=::999;;;;<>>==?A@>>>==?>=;:654321/0//.--,---3789;?BHLOSTW[]^]]]^`ddcbbbcc`adegedfffg`H5110.-,,,,,,++,,,-+ëììîğòõ÷øúúûûûııııışÿÿÿÿÿÿÿÿÿÿşıııııüüüüüùïœX}xwtqoqlllieb]WQNJB?=;99863226764889<?@@BCEFGHIHGEEEDDCA@@CDBBCDFIKKKKJKKHFD@>>=<:8641/../-*+2678;>AFJNQSVY\]\Z[^`dc___`bb_`deedcfgcf\@400.,,,,,,,+**+,,,+ëììíïòõ÷øùúúûûşıııııÿÿÿÿÿÿÿÿÿÿııııııüüüıüıöİot€ywtqoqmkmieb]WPLJD@><88985442035;;?DHJKMOQSRTUTSSUUTTTSQRTVTSSVXYYYYYZYWURQNMJGDB?=9543451--2779<>BFKNPQTY\\[ZZ\a`^\]`aab_`ccc_^cd^`U;300--+,,+,,+(*+,,,*êìîğñòôõöøùúûúûüıışşÿÿÿÿÿÿÿÿşıııııııüüıüıüùù˜n}xysnoknonkfb\UOKGEB>=<=>?=>?>=<>ACGKNPUZYYY____`]]]]\]]]\\[][XWZ\^]]]]_^\ZYSSTSOLJEA@@BA@>;9889;<ABDIMRSWY\\[[[[Z[]___^_abbafdbbc_fZ>3.///--,***('''(****êìîğñòôöö÷øùúúûüıışşÿÿÿÿÿÿÿÿşşııııışüııııöûóØcxxtvshklmlifc]WQMJHFBAACGHIIHFEEFFHLPSZbgfeffffeecdbcccdedbbaa___adcbbbfcb`_\[ZXSPNJFEFKLMLJFBAABDDEGKNRSUWZ[[YZZZZ\]^]]_`ba`dcbab`dS:21/..--,++*((''(***+êìîğñòôöö÷øøúùûûıışşÿÿÿÿÿşşÿşşıııııüıüüıı÷ûóõ’owrpnkjigfec^YTQLLJHHFGLOPPOMKKLNPTXZbjnnllllllkjjijijlkjiigfeedfggggggfcba`_[WSQNKIJKQSUVVPJIGGGIHJMOPQTUWXXXXXXY[]]]]_`aa_acb````J421..-,,-++*('''(**))êìîğñòôõö÷÷÷úùûûıışşÿÿÿÿÿşşşÿÿşıııııııüüııôùòÛrixwoljgebcc`\XSQMLLMLJLPSTUTRONNSUY]`djmmkkkkkkklllllklkjiifhhgffhhhhgcb__\\ZVSQPMKKMPSTWXYUQMKIHKKKMONOPQSTWVVVVWY[\[\^_a`__ab`^^ZC010----+,++*('''(**((êìîğñòôõö÷÷÷ùùûûıışşÿÿÿÿÿıışÿÿıııııüıüııışöüöş¢ksxuojfbaa`][WSQMMMMMPSUWXXYWTSSUW[_bdgkiffggfgfjkklljggfeeegigdddddefb`^\ZYURQPQPOPSWVWWXWWXTNLLKJJJLMNNPQRUUUUTWY[[Z[]_`__]`b`\[U@00---+++,++*((''(**'(éëîñòòôõõ÷÷øùùûûıışşÿÿÿÿÿşşÿÿÿşşıışşıııüûûùúûüßsluwtkgcca^]YVTSNMMNPSVYYWWYWWVWYZ]`aceeeeeeeddddfgiihhecdeeffdacca_`a]]\ZXUSQRRQQRQQUZYY[[[[XTQPHHIJJLLKKMNQQRSRTVXXYZ[]^^]\_a`]Z\:1.,--,++**)*))('&'(&(éëíğòòôõö÷÷øúùûûıışşÿÿÿÿÿÿÿÿÿÿÿşıışÿıûûúúúúúûü÷¦\soqlgdd`]\XVTTONNPRTX[\YWWWWY[]]^_````abbdccbaacgggggbbccccdb`_^][Z[WXVTSRRRSRRSURQSY[ZZ\[\YUSPIIJJIKKJJJLOOQRRUUVWYZZ]^]]^`a_][^72-+,,**)**)***('&'(&&èêíïñòôõ÷÷÷øúùûûıışşÿÿÿÿÿÿÿÿÿÿÿşüüıÿıûûúúúúúúúüßyqsokgdc_]\XVUUQPQQSY\_`][WVW[\``_^]]]^^^_a`__^`acedb``______^\YWUSSTSRRPOPPQRRSWXSPQXXYZZ\\YUSRNMKHGJKIIJLOOQSTVVVWXYZ\]]]```^]^\51,++*((())()))('&'(&&çêìïğòôö÷÷÷øúùûûıışşÿÿÿÿÿÿÿÿÿÿşıûûüşıûûúúúúúúúú÷¿almkgdb^\[XVUVSRRSU\_bb`]XYXZ[_^][Z[\\]]^\\[ZZZ\^_]\[[[[[Z[[YWTQPNNOQQPQPOOPQRRVWSPQUVWYZ[\ZWTSPOLIGJIIIJKMOQSTTVVWWXY\]\\_^^^_cZ41*+*))(())((()('&'(&%çéëíğñõö÷÷øúúùûûıışşÿÿÿÿÿÿÿÿÿÿşıúúüııûûúúúúúùøøüêuYpjecb]\ZXVUWUTTUW\`cca_]ZXWXYYYYYYXYZZ[YYXVVVVXXWUTWXXVVWWUSRRPNNMOOPOONNOPRQRSQNQSUVYZ[\ZXVTPONLJJIIHIJMNQTUWVVVWWZ\\][\\\`dgX22'+,++))(('''()(''''&çéëíïñôöù÷÷øùúûûıışşÿÿÿÿÿÿÿÿÿÿşûúúûıüûûúúúúùùøöøû¸Xrjeda[\ZXWWWVUUUX]_bba_`\YWUVUUVVUUTUVWVWVUTRSTSQQRUWVSSTSRPQRONNOLLLMNMMNOQQMPOOQSTVYYZZZYWVPONMLKIHHHJLNQUVWWVVVWY[[[ZZY\`fiW/1'*-,,++())('()'&&''&çêêìïïîğõôõöøùûûıışşşşşşşıııııııııııûûûûûúúùøø÷öõóx[hegaTZXYZZZWVVY[__`abba_[WTSSRQQPPNMPQNQRROPPONMMOPQRQOOOMJJLMKHKFGGHJJJKKLLMNPRRRVYYVUWXXXWSROLJKLLLLLNMOSYWXXYYXVVWY[[YZ^ehV.,(*++**+*)(&%%&&%&&&%çèêíğññòöõööøùúúûıışşşşşşıııııııııııûûûûûúúùùøöøõ÷ËU`geb\YYZZZZVWWY\`a`aaaa`^ZWRRONKHFGGFDFHHHFFFFFGIKMNNNHHIGFDDFCCE?ADFHJJJJJIKGHMRRVYXVUUVWVTTRQNLLMLMMMNPPSVWWXXZWVVWY[[Z[`fbU2)(0*+**)*('&%%&&%'&%%æçéìñôóóõõö÷ùúúúúûııııııııııııııııııûûûûûúúùøøøô÷óòEbjca\[[ZZYXXXY\`a``a```_]ZSRNKHEDEE@=?>==<;<<<>?@ABAB??@?=<=><<>=@CFHIIIHHGE@@FOUVWWWVUVUTRUSRONNONNONPRSTTUUVWWWVVWY[Y[^cheS--+.*)))('''%%%%%$&$%%æçèêïôóòòö÷øúûúúúúûûûûûûûıııııııııııûûûûûúúùøøøòùíöŞ_bkca_]\[YZYXX[]aaaaa`aaa`_YVRLIGFDA?=<98876675442465456765578669=?BDFFFGGHHEABIQUVUVXXWWWTRVTSRPOONPNORSTTRTTUUVVUVWY[Y\aegiS+.,*)*(&&&&&&%$#$$$$%#åççèíòñïğö÷øúûúúúúûûûûûûûıııııııııııûûûûûúúùøøøöùğôù¯lce_a^\ZZYYXYZ]bbb```bccba_[UPKIGB>==<:5587530--,.//./0110156457<=>??BCEGJKKJKRXVUUVXZYZYUTUUSQQQPQPPQRUUTPSSTUUVVVWY[Y]cgigW0)'+*)'&%%%%%%%#$$$$$#äæèêìïóõõôö÷ùúúúúûıüûûûûûıııııışııûûúúúúúùøø÷öòúòòòõ´ondYaaba^\ZZZ]_^_bb`_``aaa\]]YTNJFA<9986541342/-12/-0/.../023679:::=>AEILKKNOSUVRVZZYXWXYXVTTSSSPOPQQQSRRRRQRRRTVYVVVW\_cfhc\70%'*%!#$ !""#""!!!"åæèêìïòóôôö÷øùúúúúûüûûûûûüüüüüıııüúúúúúúùøøø÷öùíòïôÈdjfde__^]\Z\[[[\\]_`_`cdddd]^]YUROKFB@=;96434530/02/,/112334579:<<<<?@EFHKLNPQSUWSUYZYXWXYXVVVUTTSSSTTTRRRQRQQRRSSSSUVX\`dfglb<;.&&%$$%   !"""!! !!äçèêìïñóòóôöøùùúúúûûûûûûûûûûûûüıüûúúúúùùøøø÷öôòûïøÒcS~qcb[\ZXXX]\ZYZZ\^_]^cbccc_^]ZXVUQNJIDA>87665313675253457799:==?AAADEJHHIMQSSUVVUVVWXWVXYXWXXWVVTTTRSSRRRRRRRRRSQPPSWZ^adgik\7?2#$%&&$     ""!   "äçèêìïğğñóóõöøøùùúúúûûûûûúúúúúûüûúúúúúø÷ö÷÷öõôõì÷×d[m{f^][WUVW[YYY[[]^^^]___```_][[ZYWTQOKJEB?><:999:;9699;<=?>>@BDEJIILNONMOQTVVVVVVUUUVWWXYWWXVVVUTRQPOORRRRRSSRRQPPPSW[]`dghiY4B:-&%&$#!"   !  äçèêìïğïïóóôö÷øøùúúúûûûûûúúúúúûûúúúúúù÷öõööôôôñõŞ_\kgwxlca\WTVYXVX[]]^`a__`_```b_\\]\[YWUUQPNLJLJFEGECDA?@CEHIKJJJNOPRQRSWTTUVUVXXWVUWUTTVWWYZXWUTTTSTTRPPORRSQRTSSRQRTSUX[^afijl_8B@9+(#!""""!  !  åèéêëíïïğòóõöõøøùúúûüûûúúúúúúúúúúúúùúø÷öõğùó÷ğóì‚Ojid}|qf^[ZXVYVWWZ]]^_```babbcc_^^`^\[ZXXSTSRPTTQPPQQOKKLMNPRTUVVWVVVWXYZWXYZYX[YYXWXVUUXXWXYXWUUTTSVVUTRQPQRQQQRPOPRSUVZ\_bgjlm_5:>;2&!!""!!æéëéêëíïğğóôôõøøúúûüûûúúúúúúúúùøùùùùúúùø÷ùğäğôöOjhce}wnaY[\UXUVVYZ\]^_a`baccebaa`bba`_^^]^_^ZZZYYXXWSPQSUVWXZ\_`^\[XZ\\[ZZYZZZ\\\[ZZXWXYXXXXXXVVVTUUTTRPPOQRQNOPOLOQQTX\^adhlmm`45<:8+"!""  åçêéêëíğğğóôôô÷øùúúûûúúúúúúúúúùùøøøøøø÷ööùğ÷òöÈY^n_\c{{vjXUYWVTUUWY[^^`bbabccdcbaabcccccbdegfc`acc`]\YY[^\\]^_`bccbcZ\]^][\[[[[\\[[ZZYWXYYXXXXWVVUTTTRMLMPRRQOMOPNJLORUY]_aeilnqg9387:4'!!  åæééêìíğğğóôôôö÷øùúúúúúùùúúúúúùùø÷öö÷ööõõúğìñç`o`]Vf}{xo\SXUSVUVXZ[\^_bcbbcbcdcbbcdccddddfiheadgfa_aabcf^^__``acddc]^_a___^]]\]]\[[][ZXZZZYWVVVVUTTVRMLNQROMJKNOMIKOTVY^`cfimnql=.25;;.!!  äæèéêìíïğğóôôôöö÷ùúúúúùùøúúúúúùù÷öõóõõõôóğñõôªUn_gZPg}yvrg[XQRSSSTWXXZ]``abccddcbcceeffghgjlljdcdcaabcded__```abccba_`ccbba`^]]^]\\[]\YXXYZXWVVVVVUTSPNMMMLIHHIJLKIKQTW\`aehjmnnk<)-4::5*!!  äæèèêëíïğğóôôôôö÷øúúúúùøøùùùùùùù÷öóóõõôóóòûè¢N\gjSZOey|xwumeXNRMMMORSUX[^_bbbcceccccgijkllfhlkhfdcbbdcdecbcbcccdgfeb`acdeddba_^^^^]\[^\ZYYZZYXUTVVUTTNLLJIHGDCFJFIIINRVX\`behknnji;$)487:2!!  áãçæééìíïïñóóóõõöö÷÷ö÷÷÷ø÷÷ø÷õöòøùò÷óôñõ÷ç»yU]lf`YRMY{yyutnf[QKIKMMLPSV\acdcdddbacehhikmnlihfghgfecbbaaace__`acaacddcacdccdb_]]]__^]\]\\\]\Z[ZYWYWSQQOLGGHJGGFDDHIIMPUZ]]_chiklmqf="//4561%áãçæèéëîîïñòóóôõõö÷÷öö÷÷øö÷ø÷õ÷ğñõóóñôúûÔ{linjc_ZTNJ\xw}vsoj`RIMMMLKMOTY\^aabccaabdfgfikkjeeddegeedba_^^`a`_^^_]]___^bceeddda_^__^\][]\Z[[[[\[YXWTPMLKJGGFFEDCCBKKMPSUW[]`dhhjlmphA"-./287/!áãçåèéëìîíğòòòóôõõööööö÷÷õööõóñòôòñóöùÔµ}xzujda[WRMI]uuuqqmdVLLKLMNNPRVZ[\^_ab``_bdedfggfecddedcbb`_[[ZZ]]][ZYZ\]_^]acddceda```]][ZZ\[YXYY[[[YWUQMHGIIGFCA@AABBIJLPTTU[]afhhjmnnkF"(,.1783# áãçåæèêìííïñòñóóôôõööõõôõôõõóñòöïì÷úãµ|lpnqk`_`XTOKH[wv}srqng]TNLKMPQQTVXZYZ\^_^^^_bbacccacaaaca__][ZXVUVWXXXVUX[\]]\^`aaacb`__`]\ZYY[XVUVWWXXVTQNJGFHGECA???ADDHHJNSUX]_bgfhjmomnN"%*./452)% 